roman-aguilera/romans_pybullet_scripts/rl_for_octobot/link_7_walker_timeseries_data.csv
thigh_joint_torque,leg_joint_torque,foot_joint_torque,thigh_left_joint_torque,leg_left_joint_torque,foot_left_joint_torque,thigh_joint_position,leg_joint_position,foot_joint_position,thigh_left_joint_position,leg_left_joint_position,foot_left_joint_position,thigh_joint_velocity,leg_joint_velocity,foot_joint_velocity,thigh_left_joint_velocity,leg_left_joint_velocity,foot_left_joint_velocity,time
29.98892307281494,29.98892307281494,8.996676921844482,29.98892307281494,29.98892307281494,8.996676921844482,0.0,-0.05781641792474425,0.058818531758390157,-0.027225859217525048,3.11911568925943e-05,0.029933050167250896,0.0,-0.05781641792474425,0.058818531758390157,-0.027225859217525048,3.11911568925943e-05,0.029933050167250896,0.0165
40.0,40.0,12.0,40.0,40.0,12.0,0.0,-0.16101329580556598,0.1679519846909788,-0.05258100495370381,-0.05280618203812502,0.13084137066067897,0.0,-0.16101329580556598,0.1679519846909788,-0.05258100495370381,-0.05280618203812502,0.13084137066067897,0.033
40.0,40.0,12.0,40.0,40.0,12.0,-0.029175891955011427,-0.2265714096699419,0.2609041915512349,-0.11594176512062711,-0.05426874062484257,0.2193427185068331,-0.029175891955011427,-0.2265714096699419,0.2609041915512349,-0.11594176512062711,-0.05426874062484257,0.2193427185068331,0.0495
33.02469253540039,33.02469253540039,9.907407760620117,33.02469253540039,33.02469253540039,9.907407760620117,-0.00843090975817627,-0.32636102938525013,0.3494274456361332,-0.14256503810748392,-0.0675448811116998,0.33021809058904705,-0.00843090975817627,-0.32636102938525013,0.3494274456361332,-0.14256503810748392,-0.0675448811116998,0.33021809058904705,0.066
36.02484941482544,36.02484941482544,10.807454824447632,36.02484941482544,36.02484941482544,10.807454824447632,-0.026866428526450666,-0.3986469757829026,0.3782997822361542,-0.20876355922272521,-0.05504824711331441,0.41532543592672616,-0.026866428526450666,-0.3986469757829026,0.3782997822361542,-0.20876355922272521,-0.05504824711331441,0.41532543592672616,0.0825
24.786570072174072,24.786570072174072,7.435971021652222,24.786570072174072,24.786570072174072,7.435971021652222,-0.08176534149964763,-0.43482757986774045,0.3664649396354676,-0.3084829945046912,-0.014461405798548878,0.47434843394184506,-0.08176534149964763,-0.43482757986774045,0.3664649396354676,-0.3084829945046912,-0.014461405798548878,0.47434843394184506,0.099
40.0,40.0,12.0,40.0,40.0,12.0,-0.09781789433620515,-0.5134406045634435,0.3616811642721519,-0.377480713149372,0.0002664177519280716,0.5472185333310429,-0.09781789433620515,-0.5134406045634435,0.3616811642721519,-0.377480713149372,0.0002664177519280716,0.5472185333310429,0.1155
40.0,40.0,12.0,40.0,40.0,12.0,-0.07850801635878907,-0.6326128737045742,0.3313276041334393,-0.41778375506577636,-0.01063869771345076,0.6084232278785949,-0.07850801635878907,-0.6326128737045742,0.3313276041334393,-0.41778375506577636,-0.01063869771345076,0.6084232278785949,0.132
40.0,40.0,12.0,40.0,40.0,12.0,-0.024033385717000443,-0.7578606755643342,0.29277455003440445,-0.42327874248860414,-0.030062080394129272,0.6491054445186176,-0.024033385717000443,-0.7578606755643342,0.29277455003440445,-0.42327874248860414,-0.030062080394129272,0.6491054445186176,0.14850000000000002
40.0,40.0,12.0,40.0,40.0,12.0,0.003549015364681616,-0.8462177446707678,0.27540844949755217,-0.434972907984478,-0.06063833214967756,0.6663253119272685,0.003549015364681616,-0.8462177446707678,0.27540844949755217,-0.434972907984478,-0.06063833214967756,0.6663253119272685,0.16500000000000004
40.0,40.0,12.0,40.0,40.0,12.0,0.00145367669337359,-0.8982777759233923,0.29342071726122243,-0.44312171011762785,-0.13630734820261908,0.6793386564829484,0.00145367669337359,-0.8982777759233923,0.29342071726122243,-0.44312171011762785,-0.13630734820261908,0.6793386564829484,0.18150000000000005
40.0,40.0,12.0,40.0,40.0,12.0,-0.014603212075215942,-0.9201093249001345,0.3090586472828924,-0.474399757183569,-0.17044063917527524,0.6746990191454341,-0.014603212075215942,-0.9201093249001345,0.3090586472828924,-0.474399757183569,-0.17044063917527524,0.6746990191454341,0.19800000000000006
40.0,40.0,12.0,40.0,40.0,12.0,-0.05690091899843163,-0.9089066092933773,0.28600439148612294,-0.560592068841814,-0.10872179800570689,0.6452883450563262,-0.05690091899843163,-0.9089066092933773,0.28600439148612294,-0.560592068841814,-0.10872179800570689,0.6452883450563262,0.21450000000000008
14.509044885635376,14.509044885635376,4.352713465690613,14.509044885635376,14.509044885635376,4.352713465690613,-0.04120331736593137,-0.9071879211414355,0.26107959248452883,-0.5719555242945961,-0.09464470648404646,0.6555133197417234,-0.04120331736593137,-0.9071879211414355,0.26107959248452883,-0.5719555242945961,-0.09464470648404646,0.6555133197417234,0.2310000000000001
40.0,40.0,12.0,40.0,40.0,12.0,0.012061029269818278,-0.9050763265901057,0.25746904264717685,-0.5423969331539266,-0.09200274955224436,0.6953528843845659,0.012061029269818278,-0.9050763265901057,0.25746904264717685,-0.5423969331539266,-0.09200274955224436,0.6953528843845659,0.2475000000000001
40.0,40.0,12.0,40.0,40.0,12.0,0.004940197588917566,-0.8831571380309553,0.26900207641166946,-0.5889117900552031,-0.04114477736539075,0.6932942723604139,0.004940197588917566,-0.8831571380309553,0.26900207641166946,-0.5889117900552031,-0.04114477736539075,0.6932942723604139,0.2640000000000001
21.04823112487793,21.04823112487793,6.314469337463379,21.04823112487793,21.04823112487793,6.314469337463379,0.0020235049324206344,-0.8583233233358675,0.27321637543954513,-0.6042297494947587,-0.05049822975503803,0.6956693868566012,0.0020235049324206344,-0.8583233233358675,0.27321637543954513,-0.6042297494947587,-0.05049822975503803,0.6956693868566012,0.28050000000000014
40.0,40.0,12.0,40.0,40.0,12.0,-0.013924260223516312,-0.8167677077838513,0.292750147516202,-0.6342757217140812,-0.029353021045720386,0.698440088847464,-0.013924260223516312,-0.8167677077838513,0.292750147516202,-0.6342757217140812,-0.029353021045720386,0.698440088847464,0.29700000000000015
40.0,40.0,12.0,40.0,40.0,12.0,0.00451588425963129,-0.7879504888611572,0.2935496206050949,-0.6430537725896698,0.006413739966326246,0.6984752050035794,0.00451588425963129,-0.7879504888611572,0.2935496206050949,-0.6430537725896698,0.006413739966326246,0.6984752050035794,0.31350000000000017
40.0,40.0,12.0,40.0,40.0,12.0,0.001849706192744977,-0.7682440598943119,0.2803862602898904,-0.6592004269003604,0.002629269715419126,0.6934450508872112,0.001849706192744977,-0.7682440598943119,0.2803862602898904,-0.6592004269003604,0.002629269715419126,0.6934450508872112,0.3300000000000002
40.0,40.0,12.0,40.0,40.0,12.0,0.0005425126655728388,-0.7545687405864168,0.28538317673281055,-0.6596978555617814,-0.030709358720169066,0.7038933987130017,0.0005425126655728388,-0.7545687405864168,0.28538317673281055,-0.6596978555617814,-0.030709358720169066,0.7038933987130017,0.3465000000000002
40.0,40.0,12.0,40.0,40.0,12.0,0.00019607069728366943,-0.7322688630952049,0.3196490882668322,-0.6605899114913185,-0.04620582230693879,0.7077455650297415,0.00019607069728366943,-0.7322688630952049,0.3196490882668322,-0.6605899114913185,-0.04620582230693879,0.7077455650297415,0.3630000000000002
40.0,40.0,12.0,40.0,40.0,12.0,4.8993451876090545e-05,-0.7160508404242816,0.37506897381895543,-0.6885805388519407,-0.01432608922973673,0.685536536030769,4.8993451876090545e-05,-0.7160508404242816,0.37506897381895543,-0.6885805388519407,-0.01432608922973673,0.685536536030769,0.3795000000000002
40.0,40.0,12.0,40.0,40.0,12.0,-0.0006229516400343637,-0.7216002236810429,0.4521074688510718,-0.7226999380226421,0.0010989308006463538,0.6679305012808182,-0.0006229516400343637,-0.7216002236810429,0.4521074688510718,-0.7226999380226421,0.0010989308006463538,0.6679305012808182,0.39600000000000024
40.0,40.0,12.0,40.0,40.0,12.0,0.00042686956401467147,-0.7391087645035024,0.5033501512117565,-0.74253148946101,-0.014136437207197882,0.6719406410352938,0.00042686956401467147,-0.7391087645035024,0.5033501512117565,-0.74253148946101,-0.014136437207197882,0.6719406410352938,0.41250000000000026
40.0,40.0,12.0,40.0,40.0,12.0,0.00017092123358811796,-0.7543663469702298,0.517070748715704,-0.7778149041952338,0.00029418987721720674,0.6483391685517212,0.00017092123358811796,-0.7543663469702298,0.517070748715704,-0.7778149041952338,0.00029418987721720674,0.6483391685517212,0.42900000000000027
40.0,40.0,12.0,40.0,40.0,12.0,0.0010900032262877474,-0.7613903396705248,0.5308587354269388,-0.8004517377031092,-0.00127031201239443,0.6151539803723747,0.0010900032262877474,-0.7613903396705248,0.5308587354269388,-0.8004517377031092,-0.00127031201239443,0.6151539803723747,0.4455000000000003
40.0,40.0,12.0,40.0,40.0,12.0,0.0003737165733400876,-0.7673126780304842,0.5533436089581153,-0.8238449363267845,0.00013080305139409097,0.5836839374458775,0.0003737165733400876,-0.7673126780304842,0.5533436089581153,-0.8238449363267845,0.00013080305139409097,0.5836839374458775,0.4620000000000003
40.0,40.0,12.0,40.0,40.0,12.0,8.120195947682111e-05,-0.7699850470253868,0.5710298726357714,-0.8446204930387028,3.5003374858540154e-05,0.5501237514002809,8.120195947682111e-05,-0.7699850470253868,0.5710298726357714,-0.8446204930387028,3.5003374858540154e-05,0.5501237514002809,0.4785000000000003
32.52021789550781,32.52021789550781,9.756065368652344,32.52021789550781,32.52021789550781,9.756065368652344,0.0016226640719275661,-0.7597415047742061,0.582439896950201,-0.8503042170580004,-0.012938787091601494,0.5057624151463272,0.0016226640719275661,-0.7597415047742061,0.582439896950201,-0.8503042170580004,-0.012938787091601494,0.5057624151463272,0.49500000000000033
40.0,40.0,12.0,40.0,40.0,12.0,0.000612653689348942,-0.736294341818942,0.6103239070579022,-0.8593299803296843,-0.013632171579910406,0.4567002460177666,0.000612653689348942,-0.736294341818942,0.6103239070579022,-0.8593299803296843,-0.013632171579910406,0.4567002460177666,0.5115000000000003
21.531033515930176,21.531033515930176,6.459310054779053,21.531033515930176,21.531033515930176,6.459310054779053,0.00016027999653957128,-0.6994419201246126,0.6424910891761871,-0.8589889672517466,-0.02227024314268843,0.4215765418604606,0.00016027999653957128,-0.6994419201246126,0.6424910891761871,-0.8589889672517466,-0.02227024314268843,0.4215765418604606,0.5280000000000002
14.732842445373535,14.732842445373535,4.4198527336120605,14.732842445373535,14.732842445373535,4.4198527336120605,3.2677010590842004e-05,-0.6696336647578237,0.659725108830515,-0.8480420310692879,-0.052640017119035626,0.40188744999403087,3.2677010590842004e-05,-0.6696336647578237,0.659725108830515,-0.8480420310692879,-0.052640017119035626,0.40188744999403087,0.5445000000000002
40.0,40.0,12.0,40.0,40.0,12.0,9.938078377552462e-06,-0.704128262562329,0.6262931897806528,-0.8348597682555317,-0.1199964432696092,0.4190250339765123,9.938078377552462e-06,-0.704128262562329,0.6262931897806528,-0.8348597682555317,-0.1199964432696092,0.4190250339765123,0.5610000000000002
25.020031929016113,25.020031929016113,7.506009578704834,25.020031929016113,25.020031929016113,7.506009578704834,6.337076717803548e-06,-0.7314545191162827,0.6016166575290532,-0.8291122439846768,-0.15988218545323094,0.4308095465423717,6.337076717803548e-06,-0.7314545191162827,0.6016166575290532,-0.8291122439846768,-0.15988218545323094,0.4308095465423717,0.5775000000000001
38.705692291259766,38.705692291259766,11.61170768737793,38.705692291259766,38.705692291259766,11.61170768737793,7.454056165595204e-06,-0.7479796571225198,0.5912945170084138,-0.8306188458313264,-0.16478269069515827,0.42565160079812064,7.454056165595204e-06,-0.7479796571225198,0.5912945170084138,-0.8306188458313264,-0.16478269069515827,0.42565160079812064,0.5940000000000001
36.83737754821777,36.83737754821777,11.051213264465332,36.83737754821777,36.83737754821777,11.051213264465332,1.114025478200449e-05,-0.7531429732915579,0.5983045821581213,-0.8063486086850368,-0.20415592307931732,0.42320836714293075,1.114025478200449e-05,-0.7531429732915579,0.5983045821581213,-0.8063486086850368,-0.20415592307931732,0.42320836714293075,0.6105
28.54703426361084,28.54703426361084,8.564110279083252,28.54703426361084,28.54703426361084,8.564110279083252,1.8621060528719298e-05,-0.746775223441933,0.6125356372965429,-0.7710759716238738,-0.2432577541751019,0.42090459935642216,1.8621060528719298e-05,-0.746775223441933,0.6125356372965429,-0.7710759716238738,-0.2432577541751019,0.42090459935642216,0.627
23.463940620422363,23.463940620422363,7.039182186126709,23.463940620422363,23.463940620422363,7.039182186126709,2.2534511122878923e-05,-0.7271947641438884,0.6261054539103903,-0.7308206505828946,-0.26675984005232717,0.41996339579968794,2.2534511122878923e-05,-0.7271947641438884,0.6261054539103903,-0.7308206505828946,-0.26675984005232717,0.41996339579968794,0.6435
31.821889877319336,31.821889877319336,9.5465669631958,31.821889877319336,31.821889877319336,9.5465669631958,2.728989729861982e-05,-0.6929440477179571,0.6341437263955434,-0.6790711714041852,-0.28824512086409393,0.4279645260319603,2.728989729861982e-05,-0.6929440477179571,0.6341437263955434,-0.6790711714041852,-0.28824512086409393,0.4279645260319603,0.6599999999999999
13.553051948547363,13.553051948547363,4.065915584564209,13.553051948547363,13.553051948547363,4.065915584564209,3.126033735766788e-05,-0.6481390534814326,0.6335758556576688,-0.6219966736678344,-0.3007627018451038,0.44527706438837117,3.126033735766788e-05,-0.6481390534814326,0.6335758556576688,-0.6219966736678344,-0.3007627018451038,0.44527706438837117,0.6764999999999999
21.275999546051025,21.275999546051025,6.382799863815308,21.275999546051025,21.275999546051025,6.382799863815308,2.7188080170430493e-05,-0.6029145175307618,0.6370940253110036,-0.5694415432163182,-0.2961023318950281,0.45644754247172226,2.7188080170430493e-05,-0.6029145175307618,0.6370940253110036,-0.5694415432163182,-0.2961023318950281,0.45644754247172226,0.6929999999999998
8.18868637084961,8.18868637084961,2.456605911254883,8.18868637084961,8.18868637084961,2.456605911254883,2.991948705257043e-05,-0.5550261887620793,0.6432780004521987,-0.5059236794567465,-0.3060496734649505,0.4673984155109518,2.991948705257043e-05,-0.5550261887620793,0.6432780004521987,-0.5059236794567465,-0.3060496734649505,0.4673984155109518,0.7094999999999998
-40.0,-40.0,-12.0,-40.0,-40.0,-12.0,-0.004867694861913597,-0.505733280791741,0.6491550420993228,-0.4336825777578504,-0.3388600332803143,0.4858231515486369,-0.004867694861913597,-0.505733280791741,0.6491550420993228,-0.4336825777578504,-0.3388600332803143,0.4858231515486369,0.7259999999999998
-6.064305305480957,-6.064305305480957,-1.819291591644287,-6.064305305480957,-6.064305305480957,-1.819291591644287,0.002528030699866936,-0.4650761280340725,0.650865889712581,-0.3438483788716,-0.3891668979849968,0.5181555035137717,0.002528030699866936,-0.4650761280340725,0.650865889712581,-0.3438483788716,-0.3891668979849968,0.5181555035137717,0.7424999999999997
-15.495407581329346,-15.495407581329346,-4.648622274398804,-15.495407581329346,-15.495407581329346,-4.648622274398804,0.0010462754333382452,-0.4175284861272437,0.6440221249451952,-0.2717448697705246,-0.4061152160917383,0.5365944601977379,0.0010462754333382452,-0.4175284861272437,0.6440221249451952,-0.2717448697705246,-0.4061152160917383,0.5365944601977379,0.7589999999999997
-40.0,-40.0,-12.0,-40.0,-40.0,-12.0,0.00044296959477162223,-0.3762257445807765,0.6384303752227765,-0.19207778924955632,-0.4403781521315899,0.5477266862607845,0.00044296959477162223,-0.3762257445807765,0.6384303752227765,-0.19207778924955632,-0.4403781521315899,0.5477266862607845,0.7754999999999996
-29.404022693634033,-29.404022693634033,-8.82120680809021,-29.404022693634033,-29.404022693634033,-8.82120680809021,-0.021553118526754483,-0.3326175161064871,0.626198802220702,-0.1293826482027758,-0.47924637142227866,0.5718070860238914,-0.021553118526754483,-0.3326175161064871,0.626198802220702,-0.1293826482027758,-0.47924637142227866,0.5718070860238914,0.7919999999999996
-40.0,-40.0,-12.0,-40.0,-40.0,-12.0,-0.08222777711572125,-0.265549552069015,0.5967773686842699,-0.11007265931491747,-0.4774867398811014,0.5937909292773083,-0.08222777711572125,-0.265549552069015,0.5967773686842699,-0.11007265931491747,-0.4774867398811014,0.5937909292773083,0.8084999999999996
-15.545823574066162,-15.545823574066162,-4.663747072219849,-15.545823574066162,-15.545823574066162,-4.663747072219849,-0.12048486672308456,-0.2020811107765627,0.5627511187478925,-0.07060399768180148,-0.46856382361650223,0.629035351884945,-0.12048486672308456,-0.2020811107765627,0.5627511187478925,-0.07060399768180148,-0.46856382361650223,0.629035351884945,0.8249999999999995
-25.287861824035645,-25.287861824035645,-7.586358547210693,-25.287861824035645,-25.287861824035645,-7.586358547210693,-0.1429479132669154,-0.14227590411626573,0.5179710157673165,-0.016296275811279973,-0.4577743558770538,0.6633436132208589,-0.1429479132669154,-0.14227590411626573,0.5179710157673165,-0.016296275811279973,-0.4577743558770538,0.6633436132208589,0.8414999999999995
-40.0,-40.0,-12.0,-40.0,-40.0,-12.0,-0.19972342996302891,-0.08046630790765577,0.4770563007645116,0.002423126553890635,-0.44038367113210014,0.6925211347096267,-0.19972342996302891,-0.08046630790765577,0.4770563007645116,0.002423126553890635,-0.44038367113210014,0.6925211347096267,0.8579999999999994
-16.644268035888672,-16.644268035888672,-4.993280410766602,-16.644268035888672,-16.644268035888672,-4.993280410766602,-0.2846711420991059,-0.010213007699710903,0.44381022119983426,0.0009912945237449417,-0.42936571484603975,0.7427508999648679,-0.2846711420991059,-0.010213007699710903,0.44381022119983426,0.0009912945237449417,-0.42936571484603975,0.7427508999648679,0.8744999999999994
19.537745714187622,19.537745714187622,5.861323714256287,19.537745714187622,19.537745714187622,5.861323714256287,-0.329900779046881,-0.002773305864897705,0.44101468837541746,0.0003814715795094175,-0.39582625662148496,0.7963714146617493,-0.329900779046881,-0.002773305864897705,0.44101468837541746,0.0003814715795094175,-0.39582625662148496,0.7963714146617493,0.8909999999999993
-40.0,-40.0,-12.0,-40.0,-40.0,-12.0,-0.397706411524204,-0.009788197929840006,0.43738171321281555,-0.03872202544309743,-0.3472844516621598,0.7898293809920791,-0.397706411524204,-0.009788197929840006,0.43738171321281555,-0.03872202544309743,-0.3472844516621598,0.7898293809920791,0.9074999999999993
-7.1333396434783936,-7.1333396434783936,-2.140001893043518,-7.1333396434783936,-7.1333396434783936,-2.140001893043518,-0.4932280832465451,-0.01651445039565845,0.4471597421835772,-0.0931964081150834,-0.3463779739998518,0.7832713221934121,-0.4932280832465451,-0.01651445039565845,0.4471597421835772,-0.0931964081150834,-0.3463779739998518,0.7832713221934121,0.9239999999999993
29.940288066864014,29.940288066864014,8.982086420059204,29.940288066864014,29.940288066864014,8.982086420059204,-0.5693678115696847,-0.062225832716268026,0.46788968724280483,-0.1401522376344772,-0.37982835170449736,0.7737553253086081,-0.5693678115696847,-0.062225832716268026,0.46788968724280483,-0.1401522376344772,-0.37982835170449736,0.7737553253086081,0.9404999999999992
40.0,40.0,12.0,40.0,40.0,12.0,-0.6327365966103335,-0.14100386616011643,0.46689057650275395,-0.2116280574125753,-0.3964534836985446,0.7096710253831436,-0.6327365966103335,-0.14100386616011643,0.46689057650275395,-0.2116280574125753,-0.3964534836985446,0.7096710253831436,0.9569999999999992
24.79377508163452,24.79377508163452,7.4381325244903564,24.79377508163452,24.79377508163452,7.4381325244903564,-0.6684682175207836,-0.2421789690546581,0.4663596402131559,-0.2806599140917346,-0.4088676339709661,0.6144095380232454,-0.6684682175207836,-0.2421789690546581,0.4663596402131559,-0.2806599140917346,-0.4088676339709661,0.6144095380232454,0.9734999999999991
38.06272745132446,38.06272745132446,11.418818235397339,38.06272745132446,38.06272745132446,11.418818235397339,-0.6573895021555393,-0.37575038759162993,0.4816942471670512,-0.3270603350612211,-0.4217611222453106,0.5143539564686054,-0.6573895021555393,-0.37575038759162993,0.4816942471670512,-0.3270603350612211,-0.4217611222453106,0.5143539564686054,0.9899999999999991
30.82636833190918,30.82636833190918,9.247910499572754,30.82636833190918,30.82636833190918,9.247910499572754,-0.6364127222238809,-0.508701980828491,0.47015203420587925,-0.378572572707781,-0.41421477257846184,0.42129150830468803,-0.6364127222238809,-0.508701980828491,0.47015203420587925,-0.378572572707781,-0.41421477257846184,0.42129150830468803,1.006499999999999
26.921749114990234,26.921749114990234,8.07652473449707,26.921749114990234,26.921749114990234,8.07652473449707,-0.5691374288939858,-0.644819222013764,0.4543380460924481,-0.37657421805772734,-0.43024637601070537,0.3525250517766858,-0.5691374288939858,-0.644819222013764,0.4543380460924481,-0.37657421805772734,-0.43024637601070537,0.3525250517766858,1.022999999999999
-40.0,-40.0,-12.0,-40.0,-40.0,-12.0,-0.5990010275986375,-0.7040675694608587,0.44241083337658466,-0.43011718373230307,-0.46455947827088745,0.3138062878485356,-0.5990010275986375,-0.7040675694608587,0.44241083337658466,-0.43011718373230307,-0.46455947827088745,0.3138062878485356,1.039499999999999
40.0,40.0,12.0,40.0,40.0,12.0,-0.6274222677352722,-0.7535402963304898,0.4391434838416125,-0.47597238923524915,-0.503231578204298,0.3000087764566651,-0.6274222677352722,-0.7535402963304898,0.4391434838416125,-0.47597238923524915,-0.503231578204298,0.3000087764566651,1.055999999999999
40.0,40.0,12.0,40.0,40.0,12.0,-0.563595760899231,-0.8278059599232116,0.4416521129631093,-0.43501184276488664,-0.5576859679972355,0.28467721364444876,-0.563595760899231,-0.8278059599232116,0.4416521129631093,-0.43501184276488664,-0.5576859679972355,0.28467721364444876,1.072499999999999
29.255170822143555,29.255170822143555,8.776551246643066,29.255170822143555,29.255170822143555,8.776551246643066,-0.44830743176956606,-0.891345603505579,0.46437089725164915,-0.33723407182442566,-0.6176040459353999,0.25063787462149795,-0.44830743176956606,-0.891345603505579,0.46437089725164915,-0.33723407182442566,-0.6176040459353999,0.25063787462149795,1.0889999999999989
-40.0,-40.0,-12.0,-40.0,-40.0,-12.0,-0.4859898284357684,-0.8458274747042259,0.46560176806084447,-0.38233078221654104,-0.6120389905905528,0.2934751817442524,-0.4859898284357684,-0.8458274747042259,0.46560176806084447,-0.38233078221654104,-0.6120389905905528,0.2934751817442524,1.1054999999999988
40.0,40.0,12.0,40.0,40.0,12.0,-0.5155480254002728,-0.8084372035309457,0.442881909283716,-0.4241182512123457,-0.6050708896825652,0.32103484066755106,-0.5155480254002728,-0.8084372035309457,0.442881909283716,-0.4241182512123457,-0.6050708896825652,0.32103484066755106,1.1219999999999988
40.0,40.0,12.0,40.0,40.0,12.0,-0.4178367384377031,-0.8485218573207914,0.4246385218634681,-0.35627148149117643,-0.6361233842295444,0.33818684765897467,-0.4178367384377031,-0.8485218573207914,0.4246385218634681,-0.35627148149117643,-0.6361233842295444,0.33818684765897467,1.1384999999999987
40.0,40.0,12.0,40.0,40.0,12.0,-0.32454131010520054,-0.8674522973929519,0.38728393920356335,-0.2977672572242664,-0.6439767683130416,0.3251878891356802,-0.32454131010520054,-0.8674522973929519,0.38728393920356335,-0.2977672572242664,-0.6439767683130416,0.3251878891356802,1.1549999999999987
40.0,40.0,12.0,40.0,40.0,12.0,-0.21252242997772566,-0.9110934833250924,0.3588872676142277,-0.22812971987817604,-0.6651682217289906,0.32887576141423625,-0.21252242997772566,-0.9110934833250924,0.3588872676142277,-0.22812971987817604,-0.6651682217289906,0.32887576141423625,1.1714999999999987
-37.39664554595947,-37.39664554595947,-11.218993663787842,-37.39664554595947,-37.39664554595947,-11.218993663787842,-0.22633094781675045,-0.9075492061487395,0.3626890659716127,-0.27553964207500586,-0.6566323234628558,0.33780192577932566,-0.22633094781675045,-0.9075492061487395,0.3626890659716127,-0.27553964207500586,-0.6566323234628558,0.33780192577932566,1.1879999999999986
40.0,40.0,12.0,40.0,40.0,12.0,-0.2590893744971925,-0.8993458138731579,0.37846625831791825,-0.3417969737171893,-0.647127365929635,0.37836885059629005,-0.2590893744971925,-0.8993458138731579,0.37846625831791825,-0.3417969737171893,-0.647127365929635,0.37836885059629005,1.2044999999999986
40.0,40.0,12.0,40.0,40.0,12.0,-0.2130734084917661,-0.9209511082857049,0.3700932944617497,-0.3382589829189595,-0.6526951913141229,0.4047798366051405,-0.2130734084917661,-0.9209511082857049,0.3700932944617497,-0.3382589829189595,-0.6526951913141229,0.4047798366051405,1.2209999999999985
40.0,40.0,12.0,40.0,40.0,12.0,-0.13888567014734118,-0.9456424054302799,0.3598648503784818,-0.30776379396901204,-0.6599211267356871,0.39387900952963867,-0.13888567014734118,-0.9456424054302799,0.3598648503784818,-0.30776379396901204,-0.6599211267356871,0.39387900952963867,1.2374999999999985
40.0,40.0,12.0,40.0,40.0,12.0,0.00514224983651454,-0.9895552701531407,0.37282616688393866,-0.20425777245667487,-0.697294626574541,0.3919375599453349,0.00514224983651454,-0.9895552701531407,0.37282616688393866,-0.20425777245667487,-0.697294626574541,0.3919375599453349,1.2539999999999984
-40.0,-40.0,-12.0,-40.0,-40.0,-12.0,-0.09632123492934624,-0.9274896189131216,0.4298012547552808,-0.33740776426646435,-0.6394776086109003,0.3944234832201536,-0.09632123492934624,-0.9274896189131216,0.4298012547552808,-0.33740776426646435,-0.6394776086109003,0.3944234832201536,1.2704999999999984
40.0,40.0,12.0,40.0,40.0,12.0,-0.21143734719692672,-0.8574383750872919,0.485691414551314,-0.48333337592822123,-0.5748160359159159,0.3897091303424641,-0.21143734719692672,-0.8574383750872919,0.485691414551314,-0.48333337592822123,-0.5748160359159159,0.3897091303424641,1.2869999999999984
40.0,40.0,12.0,40.0,40.0,12.0,-0.23189939074722252,-0.8255704159338043,0.5140125787403734,-0.545055359407799,-0.5319791901775602,0.3885142033584801,-0.23189939074722252,-0.8255704159338043,0.5140125787403734,-0.545055359407799,-0.5319791901775602,0.3885142033584801,1.3034999999999983
33.02231788635254,33.02231788635254,9.906695365905762,33.02231788635254,33.02231788635254,9.906695365905762,-0.14596580567829076,-0.8531579401485416,0.5126708219628533,-0.5051121357740891,-0.5409225554511374,0.4026642920906145,-0.14596580567829076,-0.8531579401485416,0.5126708219628533,-0.5051121357740891,-0.5409225554511374,0.4026642920906145,1.3199999999999983
23.917880058288574,23.917880058288574,7.175364017486572,23.917880058288574,23.917880058288574,7.175364017486572,-0.05499961211057608,-0.8811439682272192,0.4923547885923573,-0.45910580386004596,-0.5557528372555982,0.4196068249564771,-0.05499961211057608,-0.8811439682272192,0.4923547885923573,-0.45910580386004596,-0.5557528372555982,0.4196068249564771,1.3364999999999982
27.44612216949463,27.44612216949463,8.233836650848389,27.44612216949463,27.44612216949463,8.233836650848389,0.005250462613354665,-0.891425338928738,0.47498652976460465,-0.4458053088261402,-0.5508610069917034,0.43113998607325793,0.005250462613354665,-0.891425338928738,0.47498652976460465,-0.4458053088261402,-0.5508610069917034,0.43113998607325793,1.3529999999999982
40.0,40.0,12.0,40.0,40.0,12.0,0.0021389629407811265,-0.876926060613139,0.4687701678965476,-0.5005334071875533,-0.5088818570931475,0.43205358153989076,0.0021389629407811265,-0.876926060613139,0.4687701678965476,-0.5005334071875533,-0.5088818570931475,0.43205358153989076,1.3694999999999982
40.0,40.0,12.0,40.0,40.0,12.0,0.0008760800560132016,-0.8656852312663871,0.4636315237399676,-0.5523797556333282,-0.47148790218878284,0.43539413459050796,0.0008760800560132016,-0.8656852312663871,0.4636315237399676,-0.5523797556333282,-0.47148790218878284,0.43539413459050796,1.3859999999999981
40.0,40.0,12.0,40.0,40.0,12.0,0.00035098248639587,-0.8551033783228869,0.4677298624630032,-0.6003015778321181,-0.439662014753556,0.44183560168378366,0.00035098248639587,-0.8551033783228869,0.4677298624630032,-0.6003015778321181,-0.439662014753556,0.44183560168378366,1.402499999999998
40.0,40.0,12.0,40.0,40.0,12.0,0.00014300987228221536,-0.8457510652342469,0.4685680300181699,-0.6513378881685619,-0.3996868941518856,0.44551097091843206,0.00014300987228221536,-0.8457510652342469,0.4685680300181699,-0.6513378881685619,-0.3996868941518856,0.44551097091843206,1.418999999999998
40.0,40.0,12.0,40.0,40.0,12.0,3.44372478390071e-05,-0.8460502893143953,0.4761265356917891,-0.7065046086540849,-0.357344340460328,0.44942537155452345,3.44372478390071e-05,-0.8460502893143953,0.4761265356917891,-0.7065046086540849,-0.357344340460328,0.44942537155452345,1.435499999999998
40.0,40.0,12.0,40.0,40.0,12.0,1.3672246455932215e-05,-0.8507373096604478,0.4945741612071293,-0.7575564644607904,-0.3251718525237095,0.45872093730959385,1.3672246455932215e-05,-0.8507373096604478,0.4945741612071293,-0.7575564644607904,-0.3251718525237095,0.45872093730959385,1.451999999999998
40.0,40.0,12.0,40.0,40.0,12.0,1.0421981865191586e-05,-0.8471227786056752,0.5171012764269527,-0.8017186083555721,-0.29792503131546705,0.47067561687607423,1.0421981865191586e-05,-0.8471227786056752,0.5171012764269527,-0.8017186083555721,-0.29792503131546705,0.47067561687607423,1.468499999999998
40.0,40.0,12.0,40.0,40.0,12.0,2.905858255459391e-06,-0.8347591911571738,0.5423227667806751,-0.8415540262236948,-0.26994566387988794,0.4829052478410781,2.905858255459391e-06,-0.8347591911571738,0.5423227667806751,-0.8415540262236948,-0.26994566387988794,0.4829052478410781,1.4849999999999979
40.0,40.0,12.0,40.0,40.0,12.0,1.2022796358335296e-06,-0.8158768719869346,0.5590268301859731,-0.8664966072820453,-0.2638548732294094,0.5030364920850169,1.2022796358335296e-06,-0.8158768719869346,0.5590268301859731,-0.8664966072820453,-0.2638548732294094,0.5030364920850169,1.5014999999999978
40.0,40.0,12.0,40.0,40.0,12.0,0.002550575756977451,-0.7926697252832473,0.5595046481712886,-0.8949781757273314,-0.24090622198955147,0.5203648823605509,0.002550575756977451,-0.7926697252832473,0.5595046481712886,-0.8949781757273314,-0.24090622198955147,0.5203648823605509,1.5179999999999978
40.0,40.0,12.0,40.0,40.0,12.0,0.0010598644621626508,-0.8008147736251989,0.535975934122085,-0.9357659340704118,-0.21427632836580876,0.5274797575043889,0.0010598644621626508,-0.8008147736251989,0.535975934122085,-0.9357659340704118,-0.21427632836580876,0.5274797575043889,1.5344999999999978
40.0,40.0,12.0,40.0,40.0,12.0,0.0004348300650275233,-0.8535975902550326,0.4906807330487434,-0.9768270397210883,-0.2041348145608172,0.53214444882622,0.0004348300650275233,-0.8535975902550326,0.4906807330487434,-0.9768270397210883,-0.2041348145608172,0.53214444882622,1.5509999999999977
15.122818946838379,15.122818946838379,4.536845684051514,15.122818946838379,15.122818946838379,4.536845684051514,0.00018195505897067475,-0.9004833288315773,0.46604118925929644,-1.0212954055977161,-0.17383067990052145,0.5274049001476137,0.00018195505897067475,-0.9004833288315773,0.46604118925929644,-1.0212954055977161,-0.17383067990052145,0.5274049001476137,1.5674999999999977
11.224769353866577,11.224769353866577,3.367430806159973,11.224769353866577,11.224769353866577,3.367430806159973,7.970294336056319e-05,-0.9413135482171153,0.4661947813880186,-1.0583293274786367,-0.14820843467339537,0.5174511045994438,7.970294336056319e-05,-0.9413135482171153,0.4661947813880186,-1.0583293274786367,-0.14820843467339537,0.5174511045994438,1.5839999999999976
24.7072434425354,24.7072434425354,7.41217303276062,24.7072434425354,24.7072434425354,7.41217303276062,3.878869163305872e-05,-0.9740761912220361,0.4897174545595793,-1.0643402257850678,-0.1699791224196579,0.5170069194170203,3.878869163305872e-05,-0.9740761912220361,0.4897174545595793,-1.0643402257850678,-0.1699791224196579,0.5170069194170203,1.6004999999999976
40.0,40.0,12.0,40.0,40.0,12.0,2.814804832539124e-05,-0.995678134569804,0.5150588103373286,-1.062423532262576,-0.18884016122435993,0.5087959813427538,2.814804832539124e-05,-0.995678134569804,0.5150588103373286,-1.062423532262576,-0.18884016122435993,0.5087959813427538,1.6169999999999976
33.85389566421509,33.85389566421509,10.156168699264526,33.85389566421509,33.85389566421509,10.156168699264526,2.230727164598583e-05,-1.007198164435611,0.5470944889051468,-1.047544391410813,-0.2196031806131968,0.4951181410505122,2.230727164598583e-05,-1.007198164435611,0.5470944889051468,-1.047544391410813,-0.2196031806131968,0.4951181410505122,1.6334999999999975
7.973730564117432,7.973730564117432,2.3921191692352295,7.973730564117432,7.973730564117432,2.3921191692352295,2.669399679059866e-05,-1.0093656849738422,0.5804055904744109,-1.0272414868524176,-0.24362427211233362,0.4756050403449014,2.669399679059866e-05,-1.0093656849738422,0.5804055904744109,-1.0272414868524176,-0.24362427211233362,0.4756050403449014,1.6499999999999975
40.0,40.0,12.0,40.0,40.0,12.0,2.821178691346434e-05,-1.001831732184487,0.6136128513600442,-0.9974792709854888,-0.26687995555408656,0.45457969995652536,2.821178691346434e-05,-1.001831732184487,0.6136128513600442,-0.9974792709854888,-0.26687995555408656,0.45457969995652536,1.6664999999999974
25.514814853668213,25.514814853668213,7.654444456100464,25.514814853668213,25.514814853668213,7.654444456100464,3.673573426328737e-05,-0.984631128847154,0.6387373140732657,-0.9476619511693363,-0.3132173666872121,0.4485599178755383,3.673573426328737e-05,-0.984631128847154,0.6387373140732657,-0.9476619511693363,-0.3132173666872121,0.4485599178755383,1.6829999999999974
-17.37366557121277,-17.37366557121277,-5.212099671363831,-17.37366557121277,-17.37366557121277,-5.212099671363831,3.778944270495304e-05,-0.9575207647367556,0.6485621864156292,-0.8943780577569527,-0.34585835207235405,0.44507769093671795,3.778944270495304e-05,-0.9575207647367556,0.6485621864156292,-0.8943780577569527,-0.34585835207235405,0.44507769093671795,1.6994999999999973
10.156373977661133,10.156373977661133,3.04691219329834,10.156373977661133,10.156373977661133,3.04691219329834,4.206228205047748e-05,-0.9201851234755332,0.6518212295216868,-0.8306714405435606,-0.37915002674115444,0.44125192589493556,4.206228205047748e-05,-0.9201851234755332,0.6518212295216868,-0.8306714405435606,-0.37915002674115444,0.44125192589493556,1.7159999999999973
26.627473831176758,26.627473831176758,7.988242149353027,26.627473831176758,26.627473831176758,7.988242149353027,5.064216065970655e-05,-0.8726999087823201,0.6455654407071466,-0.7534963157898389,-0.42098674151700266,0.4524938507611216,5.064216065970655e-05,-0.8726999087823201,0.6455654407071466,-0.7534963157898389,-0.42098674151700266,0.4524938507611216,1.7324999999999973
40.0,40.0,12.0,40.0,40.0,12.0,4.598742645014269e-05,-0.8220547884884443,0.6418957957499916,-0.6761815492329594,-0.4504750186982574,0.48593561135751123,4.598742645014269e-05,-0.8220547884884443,0.6418957957499916,-0.6761815492329594,-0.4504750186982574,0.48593561135751123,1.7489999999999972
-7.748324871063232,-7.748324871063232,-2.3244974613189697,-7.748324871063232,-7.748324871063232,-2.3244974613189697,5.428152678430329e-05,-0.7703240149707687,0.6329692798282381,-0.5960238552088999,-0.4777131646387187,0.5288698206847161,5.428152678430329e-05,-0.7703240149707687,0.6329692798282381,-0.5960238552088999,-0.4777131646387187,0.5288698206847161,1.7654999999999972
-40.0,-40.0,-12.0,-40.0,-40.0,-12.0,-0.0003535486690856333,-0.7176990589836997,0.6158053693653586,-0.5120820728480402,-0.5063558134104317,0.5612096959260082,-0.0003535486690856333,-0.7176990589836997,0.6158053693653586,-0.5120820728480402,-0.5063558134104317,0.5612096959260082,1.7819999999999971
18.696413040161133,18.696413040161133,5.60892391204834,18.696413040161133,18.696413040161133,5.60892391204834,0.0037884799736471997,-0.6676002486700437,0.5983288697278559,-0.42042766943952614,-0.5380408537384832,0.5758408125364235,0.0037884799736471997,-0.6676002486700437,0.5983288697278559,-0.42042766943952614,-0.5380408537384832,0.5758408125364235,1.798499999999997
-18.138399124145508,-18.138399124145508,-5.441519737243652,-18.138399124145508,-18.138399124145508,-5.441519737243652,0.0015781805844149559,-0.6205550346339183,0.5878624891733161,-0.33786610129995487,-0.5600896219135838,0.5905303014686573,0.0015781805844149559,-0.6205550346339183,0.5878624891733161,-0.33786610129995487,-0.5600896219135838,0.5905303014686573,1.814999999999997
-7.849338054656982,-7.849338054656982,-2.3548014163970947,-7.849338054656982,-7.849338054656982,-2.3548014163970947,0.0006785744546552026,-0.5737279636348481,0.5732208038056062,-0.25712185454739006,-0.5692753688659371,0.615276709159797,0.0006785744546552026,-0.5737279636348481,0.5732208038056062,-0.25712185454739006,-0.5692753688659371,0.615276709159797,1.831499999999997
-40.0,-40.0,-12.0,-40.0,-40.0,-12.0,-0.006289098050227621,-0.5261750147903729,0.5569939285493463,-0.18297672899684203,-0.5704176285484002,0.6425520189999925,-0.006289098050227621,-0.5261750147903729,0.5569939285493463,-0.18297672899684203,-0.5704176285484002,0.6425520189999925,1.847999999999997
-40.0,-40.0,-12.0,-40.0,-40.0,-12.0,-0.03184240351813393,-0.4755520682875182,0.5397233258518921,-0.1250556945460472,-0.568554856848514,0.6715562830877708,-0.03184240351813393,-0.4755520682875182,0.5397233258518921,-0.1250556945460472,-0.568554856848514,0.6715562830877708,1.864499999999997
-40.0,-40.0,-12.0,-40.0,-40.0,-12.0,-0.08283567578987085,-0.40919037558896254,0.5112702149237751,-0.08978274914419089,-0.5509277683298123,0.6699429580610049,-0.08283567578987085,-0.40919037558896254,0.5112702149237751,-0.08978274914419089,-0.5509277683298123,0.6699429580610049,1.880999999999997
-40.0,-40.0,-12.0,-40.0,-40.0,-12.0,-0.17414928317168776,-0.3207633575266536,0.47692286214997814,-0.09285485926942626,-0.5096984303424432,0.666617735673117,-0.17414928317168776,-0.3207633575266536,0.47692286214997814,-0.09285485926942626,-0.5096984303424432,0.666617735673117,1.8974999999999969
-40.0,-40.0,-12.0,-40.0,-40.0,-12.0,-0.3073226702564996,-0.21921091503509502,0.4467098584461492,-0.12715984591046786,-0.47549894209173227,0.688667626688192,-0.3073226702564996,-0.21921091503509502,0.4467098584461492,-0.12715984591046786,-0.47549894209173227,0.688667626688192,1.9139999999999968
5.805073976516724,5.805073976516724,1.741522192955017,5.805073976516724,5.805073976516724,1.741522192955017,-0.40026947654401634,-0.15200142526443663,0.43607172475212813,-0.1200718090249338,-0.4780919682630895,0.7433440240716703,-0.40026947654401634,-0.15200142526443663,0.43607172475212813,-0.1200718090249338,-0.4780919682630895,0.7433440240716703,1.9304999999999968
-16.285502910614014,-16.285502910614014,-4.885650873184204,-16.285502910614014,-16.285502910614014,-4.885650873184204,-0.4430532041232015,-0.1109022296764971,0.42784489651230917,-0.06695647768941101,-0.49633213139104393,0.7866129350579161,-0.4430532041232015,-0.1109022296764971,0.42784489651230917,-0.06695647768941101,-0.49633213139104393,0.7866129350579161,1.9469999999999967
-34.53052043914795,-34.53052043914795,-10.359156131744385,-34.53052043914795,-34.53052043914795,-10.359156131744385,-0.4989097549446431,-0.043711904663470996,0.399978905123057,-0.006442865429213657,-0.5414691417500112,0.7856274333591401,-0.4989097549446431,-0.043711904663470996,0.399978905123057,-0.006442865429213657,-0.5414691417500112,0.7856274333591401,1.9634999999999967
1.6511064767837524,1.6511064767837524,0.49533194303512573,1.6511064767837524,1.6511064767837524,0.49533194303512573,-0.5864682878012231,0.0090682018028246,0.373812568089275,0.003020871411693483,-0.5740744119366163,0.7535840915991022,-0.5864682878012231,0.0090682018028246,0.373812568089275,0.003020871411693483,-0.5740744119366163,0.7535840915991022,1.9799999999999967
-1.9657304883003235,-1.9657304883003235,-0.589719146490097,-1.9657304883003235,-1.9657304883003235,-0.589719146490097,-0.6657111701690941,-0.007553780983220955,0.36363470045533847,-0.01807294434392749,-0.6055495478571972,0.7007092430942456,-0.6657111701690941,-0.007553780983220955,0.36363470045533847,-0.01807294434392749,-0.6055495478571972,0.7007092430942456,1.9964999999999966
5.158591270446777,5.158591270446777,1.5475773811340332,5.158591270446777,5.158591270446777,1.5475773811340332,-0.7646774229541838,-0.04392916900783076,0.3578868524967676,-0.07776818356257234,-0.6371041103497376,0.6364802790779125,-0.7646774229541838,-0.04392916900783076,0.3578868524967676,-0.07776818356257234,-0.6371041103497376,0.6364802790779125,2.012999999999997
40.0,40.0,12.0,40.0,40.0,12.0,-0.8420540344291331,-0.12351843015156708,0.3619215270947555,-0.15298302199285285,-0.6608935487685204,0.5560580234165873,-0.8420540344291331,-0.12351843015156708,0.3619215270947555,-0.15298302199285285,-0.6608935487685204,0.5560580234165873,2.029499999999997
40.0,40.0,12.0,40.0,40.0,12.0,-0.8859260065408849,-0.21485230065642585,0.3582270943011939,-0.2161041799184536,-0.6787181070202323,0.4671241462458596,-0.8859260065408849,-0.21485230065642585,0.3582270943011939,-0.2161041799184536,-0.6787181070202323,0.4671241462458596,2.045999999999997
27.60737657546997,27.60737657546997,8.282212972640991,27.60737657546997,27.60737657546997,8.282212972640991,-0.9132367916632873,-0.29498781368102367,0.3631275688396006,-0.26964234599744313,-0.694643295899246,0.38181508167393263,-0.9132367916632873,-0.29498781368102367,0.3631275688396006,-0.26964234599744313,-0.694643295899246,0.38181508167393263,2.0624999999999973
25.914747714996338,25.914747714996338,7.774424314498901,25.914747714996338,25.914747714996338,7.774424314498901,-0.9114095633184873,-0.39892749164661534,0.3881444298358089,-0.31247933061729644,-0.7103757049089859,0.360891526868856,-0.9114095633184873,-0.39892749164661534,0.3881444298358089,-0.31247933061729644,-0.7103757049089859,0.360891526868856,2.0789999999999975
39.75123167037964,39.75123167037964,11.925369501113892,39.75123167037964,39.75123167037964,11.925369501113892,-0.8899774132441624,-0.5151262510322291,0.4035159429861152,-0.35155419800197646,-0.7186328512731277,0.3804917702846259,-0.8899774132441624,-0.5151262510322291,0.4035159429861152,-0.35155419800197646,-0.7186328512731277,0.3804917702846259,2.0954999999999977
36.32637977600098,36.32637977600098,10.897913932800293,36.32637977600098,36.32637977600098,10.897913932800293,-0.8291276036840731,-0.6595136883086571,0.42442444183106315,-0.36430977609802095,-0.7317885148643295,0.3988604762755327,-0.8291276036840731,-0.6595136883086571,0.42442444183106315,-0.36430977609802095,-0.7317885148643295,0.3988604762755327,2.111999999999998
40.0,40.0,12.0,40.0,40.0,12.0,-0.7335366534995323,-0.8069706582857811,0.43746737666263397,-0.34073093095311546,-0.7565637131450714,0.41877369287629734,-0.7335366534995323,-0.8069706582857811,0.43746737666263397,-0.34073093095311546,-0.7565637131450714,0.41877369287629734,2.128499999999998
15.57243824005127,15.57243824005127,4.671731472015381,15.57243824005127,15.57243824005127,4.671731472015381,-0.6748476162036208,-0.9103710547427284,0.4370349793587334,-0.3462997003489779,-0.7660878357921684,0.43511420214038504,-0.6748476162036208,-0.9103710547427284,0.4370349793587334,-0.3462997003489779,-0.7660878357921684,0.43511420214038504,2.1449999999999982
40.0,40.0,12.0,40.0,40.0,12.0,-0.6253943589209632,-0.9952170770908082,0.4321458234601123,-0.36497958424256366,-0.7607009195528271,0.4453591513260047,-0.6253943589209632,-0.9952170770908082,0.4321458234601123,-0.36497958424256366,-0.7607009195528271,0.4453591513260047,2.1614999999999984
40.0,40.0,12.0,40.0,40.0,12.0,-0.531547157822283,-1.0983399915144239,0.43774829493767153,-0.3432754705299048,-0.7705514869905442,0.45786010663894994,-0.531547157822283,-1.0983399915144239,0.43774829493767153,-0.3432754705299048,-0.7705514869905442,0.45786010663894994,2.1779999999999986
-1.2423491477966309,-1.2423491477966309,-0.37270474433898926,-1.2423491477966309,-1.2423491477966309,-0.37270474433898926,-0.5182858374404045,-1.1481067383854766,0.4401840260586108,-0.39705376540602566,-0.7500983882294368,0.4645028791534713,-0.5182858374404045,-1.1481067383854766,0.4401840260586108,-0.39705376540602566,-0.7500983882294368,0.4645028791534713,2.194499999999999
40.0,40.0,12.0,40.0,40.0,12.0,-0.5183746454754636,-1.1799651525375774,0.4357480033474341,-0.4672694554976968,-0.7145739708880324,0.46577972206364787,-0.5183746454754636,-1.1799651525375774,0.4357480033474341,-0.4672694554976968,-0.7145739708880324,0.46577972206364787,2.210999999999999
40.0,40.0,12.0,40.0,40.0,12.0,-0.4217515036667291,-1.2566439777107445,0.4279542679584976,-0.43607390934063667,-0.7384469582003707,0.47357824651564123,-0.4217515036667291,-1.2566439777107445,0.4279542679584976,-0.43607390934063667,-0.7384469582003707,0.47357824651564123,2.227499999999999
40.0,40.0,12.0,40.0,40.0,12.0,-0.30793952690834364,-1.3216860155143437,0.40599174905962193,-0.3960897922215653,-0.7459139520741259,0.49398881127237454,-0.30793952690834364,-1.3216860155143437,0.40599174905962193,-0.3960897922215653,-0.7459139520741259,0.49398881127237454,2.2439999999999993
40.0,40.0,12.0,40.0,40.0,12.0,-0.19161752656511818,-1.3660504162524711,0.3878476350339212,-0.349067656302845,-0.7532041830807453,0.5081492827077803,-0.19161752656511818,-1.3660504162524711,0.3878476350339212,-0.349067656302845,-0.7532041830807453,0.5081492827077803,2.2604999999999995
30.810952186584473,30.810952186584473,9.243285655975342,30.810952186584473,30.810952186584473,9.243285655975342,-0.10625657221159726,-1.3843283902562384,0.3915443747004907,-0.3322280773852331,-0.7431960374040747,0.5145348251773266,-0.10625657221159726,-1.3843283902562384,0.3915443747004907,-0.3322280773852331,-0.7431960374040747,0.5145348251773266,2.2769999999999997
40.0,40.0,12.0,40.0,40.0,12.0,-0.06472411756502881,-1.3732674083007657,0.4006238552902009,-0.3635379724150289,-0.70194103752506,0.5112861392524248,-0.06472411756502881,-1.3732674083007657,0.4006238552902009,-0.3635379724150289,-0.70194103752506,0.5112861392524248,2.2935
40.0,40.0,12.0,40.0,40.0,12.0,-0.021043646926189992,-1.3588003398293287,0.3975857179803331,-0.3931682227115186,-0.6635140758400937,0.5091755514858616,-0.021043646926189992,-1.3588003398293287,0.3975857179803331,-0.3931682227115186,-0.6635140758400937,0.5091755514858616,2.31
40.0,40.0,12.0,40.0,40.0,12.0,0.007638158511087515,-1.334701230890784,0.3920271415782907,-0.433307819918781,-0.6271960867201064,0.5092883610339568,0.007638158511087515,-1.334701230890784,0.3920271415782907,-0.433307819918781,-0.6271960867201064,0.5092883610339568,2.3265000000000002
40.0,40.0,12.0,40.0,40.0,12.0,0.003116032163372094,-1.2933868479917223,0.39214926015114077,-0.5072177747497291,-0.5707704463862491,0.5036031142454865,0.003116032163372094,-1.2933868479917223,0.39214926015114077,-0.5072177747497291,-0.5707704463862491,0.5036031142454865,2.3430000000000004
10.73094367980957,10.73094367980957,3.219283103942871,10.73094367980957,10.73094367980957,3.219283103942871,0.0008289537177287504,-1.2577316820806372,0.39351689126202477,-0.5827635844447303,-0.5107122331076015,0.4968966254376167,0.0008289537177287504,-1.2577316820806372,0.39351689126202477,-0.5827635844447303,-0.5107122331076015,0.4968966254376167,2.3595000000000006
40.0,40.0,12.0,40.0,40.0,12.0,0.0003305524188409633,-1.2223575968382332,0.41115578507791284,-0.6535794076786505,-0.454291091021676,0.4924325725637499,0.0003305524188409633,-1.2223575968382332,0.41115578507791284,-0.6535794076786505,-0.454291091021676,0.4924325725637499,2.376000000000001
24.092864990234375,24.092864990234375,7.2278594970703125,24.092864990234375,24.092864990234375,7.2278594970703125,0.0001148947707691885,-1.181941451046115,0.43527709462244174,-0.7253816351123605,-0.38957969244183344,0.48506107012356764,0.0001148947707691885,-1.181941451046115,0.43527709462244174,-0.7253816351123605,-0.38957969244183344,0.48506107012356764,2.392500000000001
28.01706314086914,28.01706314086914,8.405118942260742,28.01706314086914,28.01706314086914,8.405118942260742,4.6877074191129475e-05,-1.1444634580715196,0.45364126240832003,-0.7794536631979067,-0.36402000474276547,0.4852096910524087,4.6877074191129475e-05,-1.1444634580715196,0.45364126240832003,-0.7794536631979067,-0.36402000474276547,0.4852096910524087,2.409000000000001
40.0,40.0,12.0,40.0,40.0,12.0,1.9106507643092337e-05,-1.1026488260907008,0.4713288883546899,-0.8353046149406087,-0.3252777542863195,0.49109951822313624,1.9106507643092337e-05,-1.1026488260907008,0.4713288883546899,-0.8353046149406087,-0.3252777542863195,0.49109951822313624,2.4255000000000013
28.677072525024414,28.677072525024414,8.603121757507324,28.677072525024414,28.677072525024414,8.603121757507324,7.811027515222153e-06,-1.0561972497682228,0.49561887225275747,-0.895906071730412,-0.2716000572107535,0.4991636571988842,7.811027515222153e-06,-1.0561972497682228,0.49561887225275747,-0.895906071730412,-0.2716000572107535,0.4991636571988842,2.4420000000000015
40.0,40.0,12.0,40.0,40.0,12.0,0.0026394469452549266,-1.0043710277288234,0.528521468566074,-0.9335783804909543,-0.2496266706990322,0.5138942320270177,0.0026394469452549266,-1.0043710277288234,0.528521468566074,-0.9335783804909543,-0.2496266706990322,0.5138942320270177,2.4585000000000017
36.54852867126465,36.54852867126465,10.964558601379395,36.54852867126465,36.54852867126465,10.964558601379395,0.0009812945984846654,-0.9519096540460497,0.5638180148819,-0.9804378688572731,-0.21427226504228827,0.5256056821655917,0.0009812945984846654,-0.9519096540460497,0.5638180148819,-0.9804378688572731,-0.21427226504228827,0.5256056821655917,2.475000000000002
40.0,40.0,12.0,40.0,40.0,12.0,0.00040195413219591344,-0.8984592883964118,0.5781403730006603,-1.0124038517509626,-0.20159846258549802,0.542989100622376,0.00040195413219591344,-0.8984592883964118,0.5781403730006603,-1.0124038517509626,-0.20159846258549802,0.542989100622376,2.491500000000002
31.791210174560547,31.791210174560547,9.537363052368164,31.791210174560547,31.791210174560547,9.537363052368164,0.00018850192925512992,-0.8786706433256937,0.5419736561918252,-1.049164080276544,-0.1941457111740029,0.561842154349464,0.00018850192925512992,-0.8786706433256937,0.5419736561918252,-1.049164080276544,-0.1941457111740029,0.561842154349464,2.5080000000000022
40.0,40.0,12.0,40.0,40.0,12.0,8.240140736521178e-05,-0.9275076653536645,0.4600921403442975,-1.1043958183560585,-0.18231656546575606,0.5716298983600331,8.240140736521178e-05,-0.9275076653536645,0.4600921403442975,-1.1043958183560585,-0.18231656546575606,0.5716298983600331,2.5245000000000024
5.94667911529541,5.94667911529541,1.784003734588623,5.94667911529541,5.94667911529541,1.784003734588623,3.937277858441763e-05,-0.9805531951061994,0.39419143178173566,-1.151844525621054,-0.17621247371257837,0.5816980643466749,3.937277858441763e-05,-0.9805531951061994,0.39419143178173566,-1.151844525621054,-0.17621247371257837,0.5816980643466749,2.5410000000000026
25.48039674758911,25.48039674758911,7.644119024276733,25.48039674758911,25.48039674758911,7.644119024276733,1.8847438695462912e-05,-1.03377232046038,0.3449514158546309,-1.1875210610544988,-0.1795623159408768,0.5915113703969377,1.8847438695462912e-05,-1.03377232046038,0.3449514158546309,-1.1875210610544988,-0.1795623159408768,0.5915113703969377,2.5575000000000028
24.3656063079834,24.3656063079834,7.3096818923950195,24.3656063079834,24.3656063079834,7.3096818923950195,9.552581089180953e-06,-1.0846791594541516,0.35638696457611313,-1.2217574384175838,-0.17203326119174092,0.5945319915100038,9.552581089180953e-06,-1.0846791594541516,0.35638696457611313,-1.2217574384175838,-0.17203326119174092,0.5945319915100038,2.574000000000003
27.826008796691895,27.826008796691895,8.347802639007568,27.826008796691895,27.826008796691895,8.347802639007568,1.0247802746521325e-05,-1.1274595340687892,0.4177500957975428,-1.2206046211335568,-0.21812229430415786,0.6057940491811392,1.0247802746521325e-05,-1.1274595340687892,0.4177500957975428,-1.2206046211335568,-0.21812229430415786,0.6057940491811392,2.590500000000003
40.0,40.0,12.0,40.0,40.0,12.0,1.0917571076484813e-05,-1.1616344469587006,0.4993996608255332,-1.2074221158124034,-0.27058105958438744,0.6111980003770496,1.0917571076484813e-05,-1.1616344469587006,0.4993996608255332,-1.2074221158124034,-0.27058105958438744,0.6111980003770496,2.6070000000000033
40.0,40.0,12.0,40.0,40.0,12.0,1.9126132570668093e-05,-1.1855411372541296,0.5721193062224569,-1.2042473379355982,-0.2884148151548993,0.5997351392422218,1.9126132570668093e-05,-1.1855411372541296,0.5721193062224569,-1.2042473379355982,-0.2884148151548993,0.5997351392422218,2.6235000000000035
40.0,40.0,12.0,40.0,40.0,12.0,2.7810640061596094e-05,-1.197527869843857,0.6040480774800217,-1.1956887474185909,-0.3038466670214448,0.580865707515683,2.7810640061596094e-05,-1.197527869843857,0.6040480774800217,-1.1956887474185909,-0.3038466670214448,0.580865707515683,2.6400000000000037
17.475755214691162,17.475755214691162,5.242726564407349,17.475755214691162,17.475755214691162,5.242726564407349,2.3746545629538322e-05,-1.201700759211799,0.6368365835143036,-1.1758299523859022,-0.3296954868782241,0.5582924068929666,2.3746545629538322e-05,-1.201700759211799,0.6368365835143036,-1.1758299523859022,-0.3296954868782241,0.5582924068929666,2.656500000000004
0.4940342903137207,0.4940342903137207,0.1482102870941162,0.4940342903137207,0.4940342903137207,0.1482102870941162,2.8935212418224337e-05,-1.198846106746808,0.6766031288137182,-1.1585678642522337,-0.3341414903748675,0.5309923072362264,2.8935212418224337e-05,-1.198846106746808,0.6766031288137182,-1.1585678642522337,-0.3341414903748675,0.5309923072362264,2.673000000000004
40.0,40.0,12.0,40.0,40.0,12.0,3.373318023290845e-05,-1.1882537401746711,0.707114907776055,-1.131557423066861,-0.3424492537961512,0.5060596958896225,3.373318023290845e-05,-1.1882537401746711,0.707114907776055,-1.131557423066861,-0.3424492537961512,0.5060596958896225,2.689500000000004
-36.9528865814209,-36.9528865814209,-11.08586597442627,-36.9528865814209,-36.9528865814209,-11.08586597442627,-0.0044981983403619315,-1.1710044680712504,0.7431968089057291,-1.0966758398207737,-0.35781588117040913,0.4981581716408949,-0.0044981983403619315,-1.1710044680712504,0.7431968089057291,-1.0966758398207737,-0.35781588117040913,0.4981581716408949,2.7060000000000044
34.91002321243286,34.91002321243286,10.473006963729858,34.91002321243286,34.91002321243286,10.473006963729858,0.000563835686339375,-1.1490652528168928,0.782888130240475,-1.0454261832821727,-0.37146556627027033,0.5039985699163608,0.000563835686339375,-1.1490652528168928,0.782888130240475,-1.0454261832821727,-0.37146556627027033,0.5039985699163608,2.7225000000000046
6.962520480155945,6.962520480155945,2.0887561440467834,6.962520480155945,6.962520480155945,2.0887561440467834,0.0002857831697666341,-1.1167318476011296,0.7853987245406899,-0.9975035106096527,-0.36925662807062265,0.5076267748678558,0.0002857831697666341,-1.1167318476011296,0.7853987245406899,-0.9975035106096527,-0.36925662807062265,0.5076267748678558,2.7390000000000048
-18.414716720581055,-18.414716720581055,-5.524415016174316,-18.414716720581055,-18.414716720581055,-5.524415016174316,0.00014461989030732718,-1.076380803852073,0.7777504054232779,-0.9391908434854732,-0.37093857865091684,0.5143820213172883,0.00014461989030732718,-1.076380803852073,0.7777504054232779,-0.9391908434854732,-0.37093857865091684,0.5143820213172883,2.755500000000005
-34.40871238708496,-34.40871238708496,-10.322613716125488,-34.40871238708496,-34.40871238708496,-10.322613716125488,8.390588638365895e-05,-1.032462952956015,0.7757814424119989,-0.8660150254024405,-0.3915554114653965,0.535767268376292,8.390588638365895e-05,-1.032462952956015,0.7757814424119989,-0.8660150254024405,-0.3915554114653965,0.535767268376292,2.772000000000005
16.432307958602905,16.432307958602905,4.929692387580872,16.432307958602905,16.432307958602905,4.929692387580872,7.265836590996548e-05,-0.984238081235008,0.7656551715128924,-0.7823411856573965,-0.42222568437701213,0.5568485687419622,7.265836590996548e-05,-0.984238081235008,0.7656551715128924,-0.7823411856573965,-0.42222568437701213,0.5568485687419622,2.7885000000000053
-39.523024559020996,-39.523024559020996,-11.856907367706299,-39.523024559020996,-39.523024559020996,-11.856907367706299,-0.0003007355662561447,-0.933163658627428,0.7504348036992096,-0.6918152636306215,-0.4575943350497456,0.5692332983336066,-0.0003007355662561447,-0.933163658627428,0.7504348036992096,-0.6918152636306215,-0.4575943350497456,0.5692332983336066,2.8050000000000055
-35.27958393096924,-35.27958393096924,-10.583875179290771,-35.27958393096924,-35.27958393096924,-10.583875179290771,0.000233886503482322,-0.8837016850796912,0.7462924489170308,-0.5915435880440336,-0.5057569416160832,0.5756042982431034,0.000233886503482322,-0.8837016850796912,0.7462924489170308,-0.5915435880440336,-0.5057569416160832,0.5756042982431034,2.8215000000000057
-40.0,-40.0,-12.0,-40.0,-40.0,-12.0,-0.020566878457207595,-0.8271432282556368,0.7547952083210634,-0.5167971724939843,-0.525730418509719,0.5766007478031807,-0.020566878457207595,-0.8271432282556368,0.7547952083210634,-0.5167971724939843,-0.525730418509719,0.5766007478031807,2.838000000000006
-2.018144130706787,-2.018144130706787,-0.6054432392120361,-2.018144130706787,-2.018144130706787,-0.6054432392120361,-0.0006025423238070569,-0.7781077451861929,0.752724961522975,-0.4013344639969248,-0.5486628685571622,0.5865822484339609,-0.0006025423238070569,-0.7781077451861929,0.752724961522975,-0.4013344639969248,-0.5486628685571622,0.5865822484339609,2.854500000000006
-40.0,-40.0,-12.0,-40.0,-40.0,-12.0,0.0024149405246077548,-0.7299012829923239,0.7469998899260468,-0.3055722482911735,-0.5602739328383196,0.6095189833573766,0.0024149405246077548,-0.7299012829923239,0.7469998899260468,-0.3055722482911735,-0.5602739328383196,0.6095189833573766,2.871000000000006
-29.356398582458496,-29.356398582458496,-8.806919574737549,-29.356398582458496,-29.356398582458496,-8.806919574737549,-0.010090838637743765,-0.6787700063747252,0.7308104938507743,-0.22602911618548324,-0.5625714317600612,0.6364067608979822,-0.010090838637743765,-0.6787700063747252,0.7308104938507743,-0.22602911618548324,-0.5625714317600612,0.6364067608979822,2.8875000000000064
-40.0,-40.0,-12.0,-40.0,-40.0,-12.0,-0.03313504753453891,-0.6261400964578581,0.7050573866815706,-0.15618700083656256,-0.5613462187347182,0.6526705356470553,-0.03313504753453891,-0.6261400964578581,0.7050573866815706,-0.15618700083656256,-0.5613462187347182,0.6526705356470553,2.9040000000000066
-40.0,-40.0,-12.0,-40.0,-40.0,-12.0,-0.08059678584446726,-0.5645680234694981,0.6734919887155615,-0.10631315228299662,-0.5567281195436878,0.6478225962305372,-0.08059678584446726,-0.5645680234694981,0.6734919887155615,-0.10631315228299662,-0.5567281195436878,0.6478225962305372,2.9205000000000068
-30.231995582580566,-30.231995582580566,-9.06959867477417,-30.231995582580566,-30.231995582580566,-9.06959867477417,-0.13090451208775042,-0.500262447750882,0.6369430734401582,-0.05338215233325562,-0.5667948189454427,0.6223609883733692,-0.13090451208775042,-0.500262447750882,0.6369430734401582,-0.05338215233325562,-0.5667948189454427,0.6223609883733692,2.937000000000007
-23.87385129928589,-23.87385129928589,-7.162155389785767,-23.87385129928589,-23.87385129928589,-7.162155389785767,-0.17690627626936478,-0.44516911916642116,0.6070758163345956,0.005713777332247325,-0.5972470460376533,0.5864688195104909,-0.17690627626936478,-0.44516911916642116,0.6070758163345956,0.005713777332247325,-0.5972470460376533,0.5864688195104909,2.953500000000007
-23.114778995513916,-23.114778995513916,-6.934433698654175,-23.114778995513916,-23.114778995513916,-6.934433698654175,-0.2965124642772091,-0.3797062834079021,0.5798750958915176,-0.011270719131413427,-0.6213419899139679,0.5651335599252678,-0.2965124642772091,-0.3797062834079021,0.5798750958915176,-0.011270719131413427,-0.6213419899139679,0.5651335599252678,2.9700000000000073
4.5682016015052795,4.5682016015052795,1.3704604804515839,4.5682016015052795,4.5682016015052795,1.3704604804515839,-0.42937069195842964,-0.3194144457068542,0.5513308073764375,-0.04642098229587757,-0.6501721762271621,0.5474219903731093,-0.42937069195842964,-0.3194144457068542,0.5513308073764375,-0.04642098229587757,-0.6501721762271621,0.5474219903731093,2.9865000000000075
13.424828052520752,13.424828052520752,4.027448415756226,13.424828052520752,13.424828052520752,4.027448415756226,-0.5563220998884622,-0.2818121817516479,0.5216721278004713,-0.09171679057859936,-0.6828505703702121,0.5345997129930044,-0.5563220998884622,-0.2818121817516479,0.5216721278004713,-0.09171679057859936,-0.6828505703702121,0.5345997129930044,3.0030000000000077
15.769706964492798,15.769706964492798,4.730912089347839,15.769706964492798,15.769706964492798,4.730912089347839,-0.6811526761175603,-0.2665473456821372,0.487033045754412,-0.1572160220224561,-0.7117911399563049,0.5097003918376748,-0.6811526761175603,-0.2665473456821372,0.487033045754412,-0.1572160220224561,-0.7117911399563049,0.5097003918376748,3.019500000000008
31.05522871017456,31.05522871017456,9.316568613052368,31.05522871017456,31.05522871017456,9.316568613052368,-0.7695535636402605,-0.2889189453644842,0.47448305019301146,-0.21509714360729845,-0.7396040487547533,0.4713787702509928,-0.7695535636402605,-0.2889189453644842,0.47448305019301146,-0.21509714360729845,-0.7396040487547533,0.4713787702509928,3.036000000000008
35.86906909942627,35.86906909942627,10.76072072982788,35.86906909942627,35.86906909942627,10.76072072982788,-0.7860949443687362,-0.364392516692172,0.48061733847337657,-0.23401804345878102,-0.7685344865820775,0.40861899490519654,-0.7860949443687362,-0.364392516692172,0.48061733847337657,-0.23401804345878102,-0.7685344865820775,0.40861899490519654,3.052500000000008
37.48316287994385,37.48316287994385,11.244948863983154,37.48316287994385,37.48316287994385,11.244948863983154,-0.7914484809231076,-0.423681858848239,0.4925614147878027,-0.2544809320381299,-0.7912219029708535,0.4796974033348749,-0.7914484809231076,-0.423681858848239,0.4925614147878027,-0.2544809320381299,-0.7912219029708535,0.4796974033348749,3.0690000000000084
25.848114490509033,25.848114490509033,7.75443434715271,25.848114490509033,25.848114490509033,7.75443434715271,-0.7931737542199342,-0.47825024421152107,0.49658317003211316,-0.2848167747709819,-0.8029518538190865,0.5135170208758597,-0.7931737542199342,-0.47825024421152107,0.49658317003211316,-0.2848167747709819,-0.8029518538190865,0.5135170208758597,3.0855000000000086
22.907886505126953,22.907886505126953,6.872365951538086,22.907886505126953,22.907886505126953,6.872365951538086,-0.7650325962767676,-0.5674250498853808,0.4896845687504226,-0.304613079049042,-0.8092697281198207,0.5047001934218615,-0.7650325962767676,-0.5674250498853808,0.4896845687504226,-0.304613079049042,-0.8092697281198207,0.5047001934218615,3.1020000000000088
34.05732870101929,34.05732870101929,10.217198610305786,34.05732870101929,34.05732870101929,10.217198610305786,-0.7190077288785663,-0.6713485275431033,0.4832023509326172,-0.31943479582614787,-0.8119312844481968,0.516590300829533,-0.7190077288785663,-0.6713485275431033,0.4832023509326172,-0.31943479582614787,-0.8119312844481968,0.516590300829533,3.118500000000009
29.368250370025635,29.368250370025635,8.81047511100769,29.368250370025635,29.368250370025635,8.81047511100769,-0.6668431123827152,-0.7851766215280346,0.4755094932502843,-0.34029814430433464,-0.8085391975042204,0.5461893756999646,-0.6668431123827152,-0.7851766215280346,0.4755094932502843,-0.34029814430433464,-0.8085391975042204,0.5461893756999646,3.135000000000009
29.705398082733154,29.705398082733154,8.911619424819946,29.705398082733154,29.705398082733154,8.911619424819946,-0.6369223604227378,-0.8802922798225229,0.46995763545172553,-0.38443378322429644,-0.7901150005277687,0.5412209056234003,-0.6369223604227378,-0.8802922798225229,0.46995763545172553,-0.38443378322429644,-0.7901150005277687,0.5412209056234003,3.1515000000000093
35.94715118408203,35.94715118408203,10.78414535522461,35.94715118408203,35.94715118408203,10.78414535522461,-0.614730368074852,-0.9629385235514715,0.459876282474922,-0.43976039907824716,-0.76196805360575,0.5401944369874115,-0.614730368074852,-0.9629385235514715,0.459876282474922,-0.43976039907824716,-0.76196805360575,0.5401944369874115,3.1680000000000095
40.0,40.0,12.0,40.0,40.0,12.0,-0.5733726246815393,-1.0552705187015783,0.4484359641557821,-0.4832979348326409,-0.7357864791228443,0.5452441458428511,-0.5733726246815393,-1.0552705187015783,0.4484359641557821,-0.4832979348326409,-0.7357864791228443,0.5452441458428511,3.1845000000000097
40.0,40.0,12.0,40.0,40.0,12.0,-0.5078437873070547,-1.158800590729475,0.4406120816847685,-0.5068805060950689,-0.7188244941583258,0.552286547051436,-0.5078437873070547,-1.158800590729475,0.4406120816847685,-0.5068805060950689,-0.7188244941583258,0.552286547051436,3.20100000000001
40.0,40.0,12.0,40.0,40.0,12.0,-0.4294415142926513,-1.2592638828517204,0.42947315302584116,-0.5192207402051351,-0.705247583730251,0.560083966821595,-0.4294415142926513,-1.2592638828517204,0.42947315302584116,-0.5192207402051351,-0.705247583730251,0.560083966821595,3.21750000000001
7.249412536621094,7.249412536621094,2.174823760986328,7.249412536621094,7.249412536621094,2.174823760986328,-0.41285925244257615,-1.3218899613736885,0.4384343182623401,-0.5893828917975659,-0.6690424530326916,0.5634959320582767,-0.41285925244257615,-1.3218899613736885,0.4384343182623401,-0.5893828917975659,-0.6690424530326916,0.5634959320582767,3.23400000000001
40.0,40.0,12.0,40.0,40.0,12.0,-0.40391534955006836,-1.3649095652152794,0.45333738029955195,-0.6674423398895832,-0.6206108568218511,0.562542170082743,-0.40391534955006836,-1.3649095652152794,0.45333738029955195,-0.6674423398895832,-0.6206108568218511,0.562542170082743,3.2505000000000104
40.0,40.0,12.0,40.0,40.0,12.0,-0.3356735278969633,-1.4192966956824828,0.4652557388728371,-0.684399735461094,-0.5970285313371574,0.568460502632793,-0.3356735278969633,-1.4192966956824828,0.4652557388728371,-0.684399735461094,-0.5970285313371574,0.568460502632793,3.2670000000000106
40.0,40.0,12.0,40.0,40.0,12.0,-0.24545285366624503,-1.460265105538199,0.494741622267318,-0.6790044938375079,-0.5711583463527147,0.5727091762301891,-0.24545285366624503,-1.460265105538199,0.494741622267318,-0.6790044938375079,-0.5711583463527147,0.5727091762301891,3.2835000000000107
40.0,40.0,12.0,40.0,40.0,12.0,-0.17183378055704168,-1.4750626156679112,0.5335971767636694,-0.696853901419495,-0.5152696980167949,0.5656452395299824,-0.17183378055704168,-1.4750626156679112,0.5335971767636694,-0.696853901419495,-0.5152696980167949,0.5656452395299824,3.300000000000011
40.0,40.0,12.0,40.0,40.0,12.0,-0.06216779634349436,-1.4956924616582499,0.5674232068394807,-0.6714824658033887,-0.49466661370667275,0.567640444895273,-0.06216779634349436,-1.4956924616582499,0.5674232068394807,-0.6714824658033887,-0.49466661370667275,0.567640444895273,3.316500000000011
40.0,40.0,12.0,40.0,40.0,12.0,0.01530147016473644,-1.494189940681772,0.6181860138076722,-0.6888875113418106,-0.4327584535035933,0.5654502558535238,0.01530147016473644,-1.494189940681772,0.6181860138076722,-0.6888875113418106,-0.4327584535035933,0.5654502558535238,3.3330000000000113
2.011050581932068,2.011050581932068,0.6033151745796204,2.011050581932068,2.011050581932068,0.6033151745796204,0.006267485304131721,-1.4517713483827508,0.6802267234699555,-0.7868251447915565,-0.3354047985975304,0.5340291764824453,0.006267485304131721,-1.4517713483827508,0.6802267234699555,-0.7868251447915565,-0.3354047985975304,0.5340291764824453,3.3495000000000115
-7.095010280609131,-7.095010280609131,-2.1285030841827393,-7.095010280609131,-7.095010280609131,-2.1285030841827393,-0.001181902411295197,-1.4010199019611904,0.7327911357286864,-0.8636977021164204,-0.2703996497848058,0.5073886832443503,-0.001181902411295197,-1.4010199019611904,0.7327911357286864,-0.8636977021164204,-0.2703996497848058,0.5073886832443503,3.3660000000000116
23.568663597106934,23.568663597106934,7.07059907913208,23.568663597106934,23.568663597106934,7.07059907913208,0.0001834535951996499,-1.3445651921065414,0.7808937592350157,-0.9181753111047392,-0.22908400847973778,0.4924153951377229,0.0001834535951996499,-1.3445651921065414,0.7808937592350157,-0.9181753111047392,-0.22908400847973778,0.4924153951377229,3.382500000000012
40.0,40.0,12.0,40.0,40.0,12.0,7.520436277813187e-05,-1.2723963561347826,0.7855081160720535,-0.9468365615330642,-0.22623915937188258,0.48837780762192795,7.520436277813187e-05,-1.2723963561347826,0.7855081160720535,-0.9468365615330642,-0.22623915937188258,0.48837780762192795,3.399000000000012
40.0,40.0,12.0,40.0,40.0,12.0,3.0715528579570975e-05,-1.1842996525058906,0.7805129344438632,-0.9742882081638542,-0.20796930519952808,0.4856328412627833,3.0715528579570975e-05,-1.1842996525058906,0.7805129344438632,-0.9742882081638542,-0.20796930519952808,0.4856328412627833,3.415500000000012
26.00935935974121,26.00935935974121,7.802807807922363,26.00935935974121,26.00935935974121,7.802807807922363,1.2515304386835188e-05,-1.0933132985051728,0.7851929368173365,-1.0152401455322873,-0.15967193467101715,0.4814849354753055,1.2515304386835188e-05,-1.0933132985051728,0.7851929368173365,-1.0152401455322873,-0.15967193467101715,0.4814849354753055,3.4320000000000124
-23.731014728546143,-23.731014728546143,-7.119304418563843,-23.731014728546143,-23.731014728546143,-7.119304418563843,-0.005236091023798442,-0.9996876744926224,0.7848146548091554,-1.0560573924310808,-0.11601484913159711,0.48303323719582264,-0.005236091023798442,-0.9996876744926224,0.7848146548091554,-1.0560573924310808,-0.11601484913159711,0.48303323719582264,3.4485000000000126
36.34804964065552,36.34804964065552,10.904414892196655,36.34804964065552,36.34804964065552,10.904414892196655,0.003012424843517501,-1.0444230659829532,0.6820921906379098,-1.1176570783423296,-0.07603303134860022,0.48579033714262393,0.003012424843517501,-1.0444230659829532,0.6820921906379098,-1.1176570783423296,-0.07603303134860022,0.48579033714262393,3.4650000000000127
1.3655948638916016,1.3655948638916016,0.40967845916748047,1.3655948638916016,1.3655948638916016,0.40967845916748047,0.0012508643260567107,-1.1009086333259515,0.5886049825635042,-1.1769065915875956,-0.05881815224911101,0.4967802454127305,0.0012508643260567107,-1.1009086333259515,0.5886049825635042,-1.1769065915875956,-0.05881815224911101,0.4967802454127305,3.481500000000013
8.718677759170532,8.718677759170532,2.6156033277511597,8.718677759170532,8.718677759170532,2.6156033277511597,0.0005245791062170879,-1.1562247686390703,0.5143346902070589,-1.2198717776522585,-0.05702946837240828,0.512402282979521,0.0005245791062170879,-1.1562247686390703,0.5143346902070589,-1.2198717776522585,-0.05702946837240828,0.512402282979521,3.498000000000013
21.024880409240723,21.024880409240723,6.307464122772217,21.024880409240723,21.024880409240723,6.307464122772217,0.00021506439488393938,-1.2201059278196666,0.6468551702141598,-1.2392891432781745,-0.07829198411752551,0.5350891148672698,0.00021506439488393938,-1.2201059278196666,0.6468551702141598,-1.2392891432781745,-0.07829198411752551,0.5350891148672698,3.5145000000000133
40.0,40.0,12.0,40.0,40.0,12.0,0.00010597067497356322,-1.2539720211355339,0.7999161725641285,-1.2453659372003674,-0.09071764876454885,0.5513917260187354,0.00010597067497356322,-1.2539720211355339,0.7999161725641285,-1.2453659372003674,-0.09071764876454885,0.5513917260187354,3.5310000000000135
34.95016574859619,34.95016574859619,10.485049724578857,34.95016574859619,34.95016574859619,10.485049724578857,0.00013336225540037098,-1.2833786958235047,0.7784605866226827,-1.2515447888247513,-0.09174132035908981,0.552001198228754,0.00013336225540037098,-1.2833786958235047,0.7784605866226827,-1.2515447888247513,-0.09174132035908981,0.552001198228754,3.5475000000000136
17.88192868232727,17.88192868232727,5.364578604698181,17.88192868232727,17.88192868232727,5.364578604698181,9.360766435247258e-05,-1.3010502609358827,0.7748062047772232,-1.223215527992846,-0.1614701618668606,0.5593054322956214,9.360766435247258e-05,-1.3010502609358827,0.7748062047772232,-1.223215527992846,-0.1614701618668606,0.5593054322956214,3.564000000000014
32.31149196624756,32.31149196624756,9.693447589874268,32.31149196624756,32.31149196624756,9.693447589874268,6.371550641605057e-05,-1.3124090560252986,0.771499192540051,-1.1858816279431692,-0.2377147613511248,0.5598786675304506,6.371550641605057e-05,-1.3124090560252986,0.771499192540051,-1.1858816279431692,-0.2377147613511248,0.5598786675304506,3.580500000000014
27.933897972106934,27.933897972106934,8.38016939163208,27.933897972106934,27.933897972106934,8.38016939163208,0.005470001011692578,-1.3199986533056258,0.7974837780455241,-1.1497365860831004,-0.2879907315902004,0.551851013761938,0.005470001011692578,-1.3199986533056258,0.7974837780455241,-1.1497365860831004,-0.2879907315902004,0.551851013761938,3.597000000000014
16.479032039642334,16.479032039642334,4.9437096118927,16.479032039642334,16.479032039642334,4.9437096118927,0.0032450584265890296,-1.3241182598126053,0.7996163410846415,-1.117152679535759,-0.3346074641700259,0.5322005816841543,0.0032450584265890296,-1.3241182598126053,0.7996163410846415,-1.117152679535759,-0.3346074641700259,0.5322005816841543,3.6135000000000144
3.466181755065918,3.466181755065918,1.0398545265197754,3.466181755065918,3.466181755065918,1.0398545265197754,0.0019420764024544641,-1.3166995094805982,0.7958793626989531,-1.0742073905253924,-0.3778315584349469,0.510095094318041,0.0019420764024544641,-1.3166995094805982,0.7958793626989531,-1.0742073905253924,-0.3778315584349469,0.510095094318041,3.6300000000000145
3.281317353248596,3.281317353248596,0.9843952059745789,3.281317353248596,3.281317353248596,0.9843952059745789,0.0014082118872895473,-1.2914255253826785,0.7943394473899152,-1.0096564779263122,-0.4354632436145914,0.4993352153277995,0.0014082118872895473,-1.2914255253826785,0.7943394473899152,-1.0096564779263122,-0.4354632436145914,0.4993352153277995,3.6465000000000147
-24.413743019104004,-24.413743019104004,-7.324122905731201,-24.413743019104004,-24.413743019104004,-7.324122905731201,0.0012288434436397476,-1.2486417650018424,0.7940062693931682,-0.9249460357005489,-0.5049719694988754,0.49469093738579134,0.0012288434436397476,-1.2486417650018424,0.7940062693931682,-0.9249460357005489,-0.5049719694988754,0.49469093738579134,3.663000000000015
1.8006712198257446,1.8006712198257446,0.5402013659477234,1.8006712198257446,1.8006712198257446,0.5402013659477234,0.0011797580102649733,-1.1871103717489917,0.7940953408900325,-0.829420463577043,-0.5637218324650378,0.4917398227411389,0.0011797580102649733,-1.1871103717489917,0.7940953408900325,-0.829420463577043,-0.5637218324650378,0.4917398227411389,3.679500000000015
-4.962401390075684,-4.962401390075684,-1.488720417022705,-4.962401390075684,-4.962401390075684,-1.488720417022705,0.0011738927747335071,-1.1046143078908641,0.7943614367116162,-0.7188794464564489,-0.6197772799638056,0.5025511203196299,0.0011738927747335071,-1.1046143078908641,0.7943614367116162,-0.7188794464564489,-0.6197772799638056,0.5025511203196299,3.6960000000000153
9.037013053894043,9.037013053894043,2.711103916168213,9.037013053894043,9.037013053894043,2.711103916168213,0.0005360516425717036,-1.0363087384214384,0.784239123584112,-0.6136240255553924,-0.6706396251833885,0.5296401882793625,0.0005360516425717036,-1.0363087384214384,0.784239123584112,-0.6136240255553924,-0.6706396251833885,0.5296401882793625,3.7125000000000155
-40.0,-40.0,-12.0,-40.0,-40.0,-12.0,-0.006555393217112258,-0.9642946447271487,0.7701347948640896,-0.5160767754954361,-0.7053756069776916,0.5649109965946331,-0.006555393217112258,-0.9642946447271487,0.7701347948640896,-0.5160767754954361,-0.7053756069776916,0.5649109965946331,3.7290000000000156
-40.0,-40.0,-12.0,-40.0,-40.0,-12.0,-0.015304688070635208,-0.8917798941202183,0.7490853975017302,-0.41772800634895474,-0.7370847265681012,0.6071373059379723,-0.015304688070635208,-0.8917798941202183,0.7490853975017302,-0.41772800634895474,-0.7370847265681012,0.6071373059379723,3.745500000000016
-24.761900901794434,-24.761900901794434,-7.42857027053833,-24.761900901794434,-24.761900901794434,-7.42857027053833,0.0009532606352994815,-0.8281047627114436,0.7233240024389106,-0.2896159318331461,-0.7816523564505214,0.6480489651143636,0.0009532606352994815,-0.8281047627114436,0.7233240024389106,-0.2896159318331461,-0.7816523564505214,0.6480489651143636,3.762000000000016
3.5853004455566406,3.5853004455566406,1.0755901336669922,3.5853004455566406,3.5853004455566406,1.0755901336669922,0.00047375253455257714,-0.7605749056950094,0.6870465230619155,-0.17713128473766704,-0.8154952775214259,0.6692450115996653,0.00047375253455257714,-0.7605749056950094,0.6870465230619155,-0.17713128473766704,-0.8154952775214259,0.6692450115996653,3.778500000000016
-40.0,-40.0,-12.0,-40.0,-40.0,-12.0,-0.0066537356423384,-0.6968702923010381,0.6538876347101484,-0.07163460519476587,-0.8439812590067804,0.6864609959533862,-0.0066537356423384,-0.6968702923010381,0.6538876347101484,-0.07163460519476587,-0.8439812590067804,0.6864609959533862,3.7950000000000164
-40.0,-40.0,-12.0,-40.0,-40.0,-12.0,-0.03987519714711504,-0.6263310035773383,0.6535625171360657,0.0075956707731516145,-0.85523252430659,0.7145062210360636,-0.03987519714711504,-0.6263310035773383,0.6535625171360657,0.0075956707731516145,-0.85523252430659,0.7145062210360636,3.8115000000000165
-40.0,-40.0,-12.0,-40.0,-40.0,-12.0,-0.1632203143585941,-0.5165273655161541,0.6362639855459162,-0.004824733770465821,-0.8197201618012417,0.736589859437814,-0.1632203143585941,-0.5165273655161541,0.6362639855459162,-0.004824733770465821,-0.8197201618012417,0.736589859437814,3.8280000000000167
-8.321040272712708,-8.321040272712708,-2.4963120818138123,-8.321040272712708,-8.321040272712708,-2.4963120818138123,-0.27463311124504175,-0.40262486507120776,0.6008098160278345,0.0013921672489348186,-0.7921707061890138,0.7637628677359868,-0.27463311124504175,-0.40262486507120776,0.6008098160278345,0.0013921672489348186,-0.7921707061890138,0.7637628677359868,3.844500000000017
-18.258090019226074,-18.258090019226074,-5.477427005767822,-18.258090019226074,-18.258090019226074,-5.477427005767822,-0.3972428532428797,-0.284628482738437,0.5492995224189601,0.0005468761993577933,-0.7697017544194534,0.7801172058672544,-0.3972428532428797,-0.284628482738437,0.5492995224189601,0.0005468761993577933,-0.7697017544194534,0.7801172058672544,3.861000000000017
18.382145166397095,18.382145166397095,5.514643549919128,18.382145166397095,18.382145166397095,5.514643549919128,-0.508790263569509,-0.1946218998905032,0.522342152807989,0.0003992931677225732,-0.7631605638936236,0.7628578076328769,-0.508790263569509,-0.1946218998905032,0.522342152807989,0.0003992931677225732,-0.7631605638936236,0.7628578076328769,3.8775000000000173
0.6406611204147339,0.6406611204147339,0.19219833612442017,0.6406611204147339,0.6406611204147339,0.19219833612442017,-0.6099250821109394,-0.14404067231010878,0.5105675984093294,0.0002009658433900248,-0.8124581681015564,0.7097222799336984,-0.6099250821109394,-0.14404067231010878,0.5105675984093294,0.0002009658433900248,-0.8124581681015564,0.7097222799336984,3.8940000000000174
3.919917047023773,3.919917047023773,1.175975114107132,3.919917047023773,3.919917047023773,1.175975114107132,-0.7134227507845416,-0.11200628130687086,0.4843145361218138,-0.019658446685982163,-0.8584604061593235,0.673296043471757,-0.7134227507845416,-0.11200628130687086,0.4843145361218138,-0.019658446685982163,-0.8584604061593235,0.673296043471757,3.9105000000000176
14.107820987701416,14.107820987701416,4.232346296310425,14.107820987701416,14.107820987701416,4.232346296310425,-0.8274511230646515,-0.09636353071045155,0.4728794483052358,-0.07501811950474913,-0.893785775138256,0.6400101796382976,-0.8274511230646515,-0.09636353071045155,0.4728794483052358,-0.07501811950474913,-0.893785775138256,0.6400101796382976,3.927000000000018
29.522509574890137,29.522509574890137,8.856752872467041,29.522509574890137,29.522509574890137,8.856752872467041,-0.9321895138565328,-0.10289704047828284,0.4644443288331349,-0.1514134684337484,-0.9151430870987901,0.6353174226484073,-0.9321895138565328,-0.10289704047828284,0.4644443288331349,-0.1514134684337484,-0.9151430870987901,0.6353174226484073,3.943500000000018
34.34021234512329,34.34021234512329,10.302063703536987,34.34021234512329,34.34021234512329,10.302063703536987,-1.0052326027226093,-0.14597663950234638,0.4651746591001339,-0.23100467149154347,-0.9263649444256152,0.6584629397164713,-1.0052326027226093,-0.14597663950234638,0.4651746591001339,-0.23100467149154347,-0.9263649444256152,0.6584629397164713,3.960000000000018
33.16575527191162,33.16575527191162,9.949726581573486,33.16575527191162,33.16575527191162,9.949726581573486,-1.0227749273686033,-0.24844703829190637,0.4751518033842841,-0.2978414637702271,-0.9312713700156009,0.6800261751600747,-1.0227749273686033,-0.24844703829190637,0.4751518033842841,-0.2978414637702271,-0.9312713700156009,0.6800261751600747,3.9765000000000184
32.28200912475586,32.28200912475586,9.684602737426758,32.28200912475586,32.28200912475586,9.684602737426758,-0.9926288822266717,-0.4078234975084132,0.4789577226822526,-0.3545294207757064,-0.9272742993067049,0.7012076970756056,-0.9926288822266717,-0.4078234975084132,0.4789577226822526,-0.3545294207757064,-0.9272742993067049,0.7012076970756056,3.9930000000000185
22.164015769958496,22.164015769958496,6.649204730987549,22.164015769958496,22.164015769958496,6.649204730987549,-0.9377822198253697,-0.6033664637169621,0.45383418233494344,-0.40506320233211374,-0.9238675437455399,0.7194088032551635,-0.9377822198253697,-0.6033664637169621,0.45383418233494344,-0.40506320233211374,-0.9238675437455399,0.7194088032551635,4.009500000000019
22.61152744293213,22.61152744293213,6.783458232879639,22.61152744293213,22.61152744293213,6.783458232879639,-0.8556417918640546,-0.8181794083505666,0.4166482262093551,-0.4345718049091247,-0.9298228575957719,0.7383612894840311,-0.8556417918640546,-0.8181794083505666,0.4166482262093551,-0.4345718049091247,-0.9298228575957719,0.7383612894840311,4.0260000000000185
13.986496925354004,13.986496925354004,4.195949077606201,13.986496925354004,13.986496925354004,4.195949077606201,-0.7932126788727043,-0.9985841083752381,0.37252454915837924,-0.472511822943666,-0.9343774570048086,0.7583511173831994,-0.7932126788727043,-0.9985841083752381,0.37252454915837924,-0.472511822943666,-0.9343774570048086,0.7583511173831994,4.042500000000018
40.0,40.0,12.0,40.0,40.0,12.0,-0.7211847639714238,-1.1497566215713142,0.3368771155498848,-0.49213796487708156,-0.9387986484251992,0.7781713109855435,-0.7211847639714238,-1.1497566215713142,0.3368771155498848,-0.49213796487708156,-0.9387986484251992,0.7781713109855435,4.059000000000018
40.0,40.0,12.0,40.0,40.0,12.0,-0.6430351963780158,-1.285067647810406,0.3040214155830718,-0.5077170849018049,-0.9363842652489783,0.793457735505843,-0.6430351963780158,-1.285067647810406,0.3040214155830718,-0.5077170849018049,-0.9363842652489783,0.793457735505843,4.075500000000018
40.0,40.0,12.0,40.0,40.0,12.0,-0.5733982773527608,-1.4040703607056686,0.2547249794193848,-0.5419554835656134,-0.9148022035685882,0.7963049364841904,-0.5733982773527608,-1.4040703607056686,0.2547249794193848,-0.5419554835656134,-0.9148022035685882,0.7963049364841904,4.092000000000017
40.0,40.0,12.0,40.0,40.0,12.0,-0.5000997978534782,-1.5141375123915266,0.20696080995064145,-0.5859027285653592,-0.8724108833982258,0.7964463086561557,-0.5000997978534782,-1.5141375123915266,0.20696080995064145,-0.5859027285653592,-0.8724108833982258,0.7964463086561557,4.108500000000017
40.0,40.0,12.0,40.0,40.0,12.0,-0.39843404613180344,-1.6231761076325457,0.17821785734094175,-0.6031576385868656,-0.8381216663828066,0.794033713513204,-0.39843404613180344,-1.6231761076325457,0.17821785734094175,-0.6031576385868656,-0.8381216663828066,0.794033713513204,4.125000000000017
40.0,40.0,12.0,40.0,40.0,12.0,-0.2785297691192168,-1.7267166385056192,0.11022256394560548,-0.6110541175173154,-0.8028928688005759,0.7906301962991441,-0.2785297691192168,-1.7267166385056192,0.11022256394560548,-0.6110541175173154,-0.8028928688005759,0.7906301962991441,4.141500000000017
40.0,40.0,12.0,40.0,40.0,12.0,-0.17533495891228487,-1.811625032372653,0.027811423716623755,-0.6454296401563472,-0.7481143170485745,0.780932495537685,-0.17533495891228487,-1.811625032372653,0.027811423716623755,-0.6454296401563472,-0.7481143170485745,0.780932495537685,4.158000000000016
40.0,40.0,12.0,40.0,40.0,12.0,-0.061376132393355855,-1.8870475317502846,-0.02905222532594365,-0.6730975215569053,-0.6880449781801398,0.769882382620044,-0.061376132393355855,-1.8870475317502846,-0.02905222532594365,-0.6730975215569053,-0.6880449781801398,0.769882382620044,4.174500000000016
40.0,40.0,12.0,40.0,40.0,12.0,-2.417182319692051e-05,-1.9402432157050196,-0.043963266516029546,-0.7591303955676059,-0.5902811567120523,0.7473205162681661,-2.417182319692051e-05,-1.9402432157050196,-0.043963266516029546,-0.7591303955676059,-0.5902811567120523,0.7473205162681661,4.191000000000016
-19.339665174484253,-19.339665174484253,-5.801899552345276,-19.339665174484253,-19.339665174484253,-5.801899552345276,5.041024912940795e-05,-1.9738189637142105,0.0036650462345984795,-0.8943902493875779,-0.4789430190089866,0.7095525151911207,5.041024912940795e-05,-1.9738189637142105,0.0036650462345984795,-0.8943902493875779,-0.4789430190089866,0.7095525151911207,4.207500000000016
3.8112258911132812,3.8112258911132812,1.1433677673339844,3.8112258911132812,3.8112258911132812,1.1433677673339844,-0.010307799073969618,-1.9951325270442397,0.10220106995309093,-1.0308538471458826,-0.36705124490033775,0.6652121025244742,-0.010307799073969618,-1.9951325270442397,0.10220106995309093,-1.0308538471458826,-0.36705124490033775,0.6652121025244742,4.224000000000015
23.76131534576416,23.76131534576416,7.128394603729248,23.76131534576416,23.76131534576416,7.128394603729248,0.009093681120011868,-2.0039816528620666,0.23372465102418838,-1.1269839491080862,-0.26914752298861416,0.6208950169893482,0.009093681120011868,-2.0039816528620666,0.23372465102418838,-1.1269839491080862,-0.26914752298861416,0.6208950169893482,4.240500000000015
-0.31201601028442383,-0.31201601028442383,-0.09360480308532715,-0.31201601028442383,-0.31201601028442383,-0.09360480308532715,0.003724773917424924,-1.984120789308018,0.37213676076749175,-1.217008537506617,-0.19996711944896853,0.5697391442795042,0.003724773917424924,-1.984120789308018,0.37213676076749175,-1.217008537506617,-0.19996711944896853,0.5697391442795042,4.257000000000015
40.0,40.0,12.0,40.0,40.0,12.0,0.0015256859770742127,-1.9418366027228904,0.509549821914491,-1.2709494553559686,-0.17540154903664545,0.5282804932966074,0.0015256859770742127,-1.9418366027228904,0.509549821914491,-1.2709494553559686,-0.17540154903664545,0.5282804932966074,4.2735000000000145
40.0,40.0,12.0,40.0,40.0,12.0,0.0006249076108771974,-1.874302772749573,0.6267941761194852,-1.295814553638671,-0.1836418914720421,0.4951881880735388,0.0006249076108771974,-1.874302772749573,0.6267941761194852,-1.295814553638671,-0.1836418914720421,0.4951881880735388,4.290000000000014
40.0,40.0,12.0,40.0,40.0,12.0,0.00025600035241205135,-1.7857650228720736,0.7067391315949073,-1.3219399858496077,-0.16639644966831538,0.4591963791731235,0.00025600035241205135,-1.7857650228720736,0.7067391315949073,-1.3219399858496077,-0.16639644966831538,0.4591963791731235,4.306500000000014
40.0,40.0,12.0,40.0,40.0,12.0,0.00010442011082575033,-1.673960034508341,0.795366710889633,-1.3139768010541102,-0.19692081467068764,0.43520080388315624,0.00010442011082575033,-1.673960034508341,0.795366710889633,-1.3139768010541102,-0.19692081467068764,0.43520080388315624,4.323000000000014
40.0,40.0,12.0,40.0,40.0,12.0,4.294961429658161e-05,-1.5448873188805412,0.7722470752749748,-1.2989028871821313,-0.2240402943519317,0.4142713768045,4.294961429658161e-05,-1.5448873188805412,0.7722470752749748,-1.2989028871821313,-0.2240402943519317,0.4142713768045,4.3395000000000135
-1.6728782653808594,-1.6728782653808594,-0.5018634796142578,-1.6728782653808594,-1.6728782653808594,-0.5018634796142578,1.6578295135258642e-05,-1.3985214781409139,0.7531064859336123,-1.263138052209316,-0.27299324996850094,0.40118255884065535,1.6578295135258642e-05,-1.3985214781409139,0.7531064859336123,-1.263138052209316,-0.27299324996850094,0.40118255884065535,4.356000000000013
40.0,40.0,12.0,40.0,40.0,12.0,6.966866076940703e-06,-1.2401315655009972,0.7326916979489565,-1.2147146915705973,-0.32815710226044975,0.4001262736906856,6.966866076940703e-06,-1.2401315655009972,0.7326916979489565,-1.2147146915705973,-0.32815710226044975,0.4001262736906856,4.372500000000013
40.0,40.0,12.0,40.0,40.0,12.0,4.217651377029047e-06,-1.2680382770795924,0.5974966436471746,-1.2409394858118425,-0.343204934617618,0.39949519386383026,4.217651377029047e-06,-1.2680382770795924,0.5974966436471746,-1.2409394858118425,-0.343204934617618,0.39949519386383026,4.389000000000013
20.448284149169922,20.448284149169922,6.134485244750977,20.448284149169922,20.448284149169922,6.134485244750977,4.041510198887915e-06,-1.364259906757613,0.5556467673247799,-1.2888369797555757,-0.34565332473536076,0.3874308561006512,4.041510198887915e-06,-1.364259906757613,0.5556467673247799,-1.2888369797555757,-0.34565332473536076,0.3874308561006512,4.405500000000012
17.45871663093567,17.45871663093567,5.237614989280701,17.45871663093567,17.45871663093567,5.237614989280701,2.095783625312275e-06,-1.429182974308389,0.5744794963737755,-1.3104840303787262,-0.3724311297102437,0.3674129518729462,2.095783625312275e-06,-1.429182974308389,0.5744794963737755,-1.3104840303787262,-0.3724311297102437,0.3674129518729462,4.422000000000012
28.645801544189453,28.645801544189453,8.593740463256836,28.645801544189453,28.645801544189453,8.593740463256836,1.20598164309153e-06,-1.4535986190691634,0.633334275911912,-1.3156667422836106,-0.38853677011611276,0.3395316132897109,1.20598164309153e-06,-1.4535986190691634,0.633334275911912,-1.3156667422836106,-0.38853677011611276,0.3395316132897109,4.438500000000012
20.435938835144043,20.435938835144043,6.130781650543213,20.435938835144043,20.435938835144043,6.130781650543213,1.410261265691309e-06,-1.436842732884428,0.735973135398751,-1.3103184962483483,-0.38400166449090833,0.3047691215123982,1.410261265691309e-06,-1.436842732884428,0.735973135398751,-1.3103184962483483,-0.38400166449090833,0.3047691215123982,4.455000000000012
21.329851150512695,21.329851150512695,6.398955345153809,21.329851150512695,21.329851150512695,6.398955345153809,2.363281252246202e-06,-1.3852182987422814,0.7867483616991267,-1.3012211927148587,-0.35381590008209307,0.26885128513298856,2.363281252246202e-06,-1.3852182987422814,0.7867483616991267,-1.3012211927148587,-0.35381590008209307,0.26885128513298856,4.471500000000011
-25.986342430114746,-25.986342430114746,-7.795902729034424,-25.986342430114746,-25.986342430114746,-7.795902729034424,0.001306630770004224,-1.3900084240438701,0.7995644464387318,-1.2917198713675708,-0.3459151969025818,0.2167049850538638,0.001306630770004224,-1.3900084240438701,0.7995644464387318,-1.2917198713675708,-0.3459151969025818,0.2167049850538638,4.488000000000011
25.357861518859863,25.357861518859863,7.607358455657959,25.357861518859863,25.357861518859863,7.607358455657959,0.0009248538034658932,-1.3979801450650322,0.7942754773335859,-1.2502010802820218,-0.4079240218497797,0.15897715769219253,0.0009248538034658932,-1.3979801450650322,0.7942754773335859,-1.2502010802820218,-0.4079240218497797,0.15897715769219253,4.504500000000011
13.92993450164795,13.92993450164795,4.178980350494385,13.92993450164795,13.92993450164795,4.178980350494385,0.0009386784973682688,-1.3890501619097568,0.7933863526579896,-1.1815725119998033,-0.4973164383290556,0.10958834292417437,0.0009386784973682688,-1.3890501619097568,0.7933863526579896,-1.1815725119998033,-0.4973164383290556,0.10958834292417437,4.521000000000011
28.19779634475708,28.19779634475708,8.459338903427124,28.19779634475708,28.19779634475708,8.459338903427124,0.0010099364496340155,-1.364850984077048,0.793477987661815,-1.0923164493914537,-0.6026823083570041,0.07971382599501715,0.0010099364496340155,-1.364850984077048,0.793477987661815,-1.0923164493914537,-0.6026823083570041,0.07971382599501715,4.53750000000001
-8.074867725372314,-8.074867725372314,-2.4224603176116943,-8.074867725372314,-8.074867725372314,-2.4224603176116943,0.0010781350167272412,-1.326459949355792,0.7937771269341137,-0.9882146457259523,-0.7127866416546276,0.06454161770594716,0.0010781350167272412,-1.326459949355792,0.7937771269341137,-0.9882146457259523,-0.7127866416546276,0.06454161770594716,4.55400000000001
40.0,40.0,12.0,40.0,40.0,12.0,0.0009326301877111146,-1.2788367267015877,0.7925776665216882,-0.8774713157699465,-0.8138373523736641,0.03561747183928655,0.0009326301877111146,-1.2788367267015877,0.7925776665216882,-0.8774713157699465,-0.8138373523736641,0.03561747183928655,4.57050000000001
-18.45872163772583,-18.45872163772583,-5.537616491317749,-18.45872163772583,-18.45872163772583,-5.537616491317749,0.0009722083276408304,-1.2175703099795716,0.7929078550748803,-0.7658097734353558,-0.8866052009792869,0.0037619489810709495,0.0009722083276408304,-1.2175703099795716,0.7929078550748803,-0.7658097734353558,-0.8866052009792869,0.0037619489810709495,4.5870000000000095
15.493941307067871,15.493941307067871,4.648182392120361,15.493941307067871,15.493941307067871,4.648182392120361,0.0008135345743422482,-1.146547950915478,0.7917769440996748,-0.6595399183680188,-0.9261820532971307,-0.009923163870999568,0.0008135345743422482,-1.146547950915478,0.7917769440996748,-0.6595399183680188,-0.9261820532971307,-0.009923163870999568,4.603500000000009
-7.699880599975586,-7.699880599975586,-2.309964179992676,-7.699880599975586,-7.699880599975586,-2.309964179992676,0.0007151959457338904,-1.0725108938505934,0.791188683183562,-0.5491864473504975,-0.9688401694126098,-0.004048671271835901,0.0007151959457338904,-1.0725108938505934,0.791188683183562,-0.5491864473504975,-0.9688401694126098,-0.004048671271835901,4.620000000000009
30.581989288330078,30.581989288330078,9.174596786499023,30.581989288330078,30.581989288330078,9.174596786499023,0.00041318709782114276,-1.0094736647498097,0.7865297107263349,-0.44512119264032307,-1.0190742244578437,0.001700553621110617,0.00041318709782114276,-1.0094736647498097,0.7865297107263349,-0.44512119264032307,-1.0190742244578437,0.001700553621110617,4.636500000000009
-10.461881160736084,-10.461881160736084,-3.138564348220825,-10.461881160736084,-10.461881160736084,-3.138564348220825,0.0002090546334512817,-0.9460144014523791,0.7740423329888333,-0.34492977425241383,-1.0554226505354747,0.02624224422735263,0.0002090546334512817,-0.9460144014523791,0.7740423329888333,-0.34492977425241383,-1.0554226505354747,0.02624224422735263,4.6530000000000085
10.038261413574219,10.038261413574219,3.0114784240722656,10.038261413574219,10.038261413574219,3.0114784240722656,0.0001173504734153485,-0.8810611066722298,0.7496860014008869,-0.24864336010146035,-1.07764588057567,0.0778069393584361,0.0001173504734153485,-0.8810611066722298,0.7496860014008869,-0.24864336010146035,-1.07764588057567,0.0778069393584361,4.669500000000008
-6.070846319198608,-6.070846319198608,-1.8212538957595825,-6.070846319198608,-6.070846319198608,-1.8212538957595825,7.48595212746378e-05,-0.8159882800233171,0.7191316834986309,-0.15543887518491228,-1.089052863534687,0.1363385488385147,7.48595212746378e-05,-0.8159882800233171,0.7191316834986309,-0.15543887518491228,-1.089052863534687,0.1363385488385147,4.686000000000008
-40.0,-40.0,-12.0,-40.0,-40.0,-12.0,-0.035818207521830535,-0.7367573067211001,0.6982580219087484,-0.09678273229638817,-1.0825989210087688,0.19326220748369455,-0.035818207521830535,-0.7367573067211001,0.6982580219087484,-0.09678273229638817,-1.0825989210087688,0.19326220748369455,4.702500000000008
-30.995638370513916,-30.995638370513916,-9.298691511154175,-30.995638370513916,-30.995638370513916,-9.298691511154175,-0.09810726335725513,-0.6431114315253775,0.6736912784486682,-0.06283246174094746,-1.0590710740145326,0.2621457916838703,-0.09810726335725513,-0.6431114315253775,0.6736912784486682,-0.06283246174094746,-1.0590710740145326,0.2621457916838703,4.719000000000007
-33.894028663635254,-33.894028663635254,-10.168208599090576,-33.894028663635254,-33.894028663635254,-10.168208599090576,-0.181249098973228,-0.5303315550343036,0.642535089336323,-0.043246184288378085,-1.0231201031926669,0.34102306348591344,-0.181249098973228,-0.5303315550343036,0.642535089336323,-0.043246184288378085,-1.0231201031926669,0.34102306348591344,4.735500000000007
-29.506635665893555,-29.506635665893555,-8.851990699768066,-29.506635665893555,-29.506635665893555,-8.851990699768066,-0.2835725537487055,-0.39607946911377917,0.6029715863365172,-0.03190190326380263,-0.9808683904326464,0.4083874806683492,-0.2835725537487055,-0.39607946911377917,0.6029715863365172,-0.03190190326380263,-0.9808683904326464,0.4083874806683492,4.752000000000007
-18.470616340637207,-18.470616340637207,-5.541184902191162,-18.470616340637207,-18.470616340637207,-5.541184902191162,-0.3663630631029194,-0.27780352787763374,0.5650322416398211,0.0018437555367423052,-0.9543418519820828,0.4676167423290729,-0.3663630631029194,-0.27780352787763374,0.5650322416398211,0.0018437555367423052,-0.9543418519820828,0.4676167423290729,4.768500000000007
-11.978374719619751,-11.978374719619751,-3.5935124158859253,-11.978374719619751,-11.978374719619751,-3.5935124158859253,-0.4630561319057266,-0.19274406835125069,0.532978109202334,0.0007551442126980658,-0.9142649826047108,0.5514474668678455,-0.4630561319057266,-0.19274406835125069,0.532978109202334,0.0007551442126980658,-0.9142649826047108,0.5514474668678455,4.785000000000006
-30.429363250732422,-30.429363250732422,-9.128808975219727,-30.429363250732422,-30.429363250732422,-9.128808975219727,-0.5680621750754582,-0.09605165461784104,0.5052691999001866,0.0003091616593351675,-0.8768508961675459,0.6513873059541377,-0.5680621750754582,-0.09605165461784104,0.5052691999001866,0.0003091616593351675,-0.8768508961675459,0.6513873059541377,4.801500000000006
-15.985276699066162,-15.985276699066162,-4.795583009719849,-15.985276699066162,-15.985276699066162,-4.795583009719849,-0.6810239267264335,0.008065206870316262,0.4785437028505497,0.00012655286167973458,-0.8435177609756027,0.7379822775973489,-0.6810239267264335,0.008065206870316262,0.4785437028505497,0.00012655286167973458,-0.8435177609756027,0.7379822775973489,4.818000000000006
5.954217910766602,5.954217910766602,1.7862653732299805,5.954217910766602,5.954217910766602,1.7862653732299805,-0.7525614906089945,-0.01770899941524848,0.4937818704743734,0.00013479190731853862,-0.9129365900327332,0.7114212262525105,-0.7525614906089945,-0.01770899941524848,0.4937818704743734,0.00013479190731853862,-0.9129365900327332,0.7114212262525105,4.834500000000006
-3.518439531326294,-3.518439531326294,-1.0555318593978882,-3.518439531326294,-3.518439531326294,-1.0555318593978882,-0.8364057792503986,-0.00834101562598679,0.5014307319599997,-0.0070728837334448486,-0.9788704861993959,0.7397740896547327,-0.8364057792503986,-0.00834101562598679,0.5014307319599997,-0.0070728837334448486,-0.9788704861993959,0.7397740896547327,4.851000000000005
23.06314468383789,23.06314468383789,6.918943405151367,23.06314468383789,23.06314468383789,6.918943405151367,-0.9042164913060834,-0.007025168353112218,0.5110433828685402,-0.01946252205127609,-1.0316691424915643,0.7651508890701847,-0.9042164913060834,-0.007025168353112218,0.5110433828685402,-0.01946252205127609,-1.0316691424915643,0.7651508890701847,4.867500000000005
22.165002822875977,22.165002822875977,6.649500846862793,22.165002822875977,22.165002822875977,6.649500846862793,-0.9557312388316994,-0.04613292527314217,0.5266337954348047,-0.05850942407269776,-1.068563785844493,0.7881320031256449,-0.9557312388316994,-0.04613292527314217,0.5266337954348047,-0.05850942407269776,-1.068563785844493,0.7881320031256449,4.884000000000005
